!!!!SEGMENT: pl-wumfc--n68232--012_moniuszko-stanislaw--paria-wyciag-fortepianowy-akt-i-wielospiew.krn
!!!cenid: 18xx:4142
!!!COM: Moniuszko, Stanisław
!!!COM-rismID: pe30008351
!!!CDT: 1819/05/05-1872/06/04
!!!CNT: Polish
!!!GTL: Paria – wyciąg fortepianowy
!!!OTL: Akt I. Wielośpiew
!!!OMV: 012
!!!PDT:
!!!AGN:
!!!SMS-siglum: PL-Wumfc
!!!SMS-shelfmark: N68232
!!!SMS-shelfwork: 001-012 G
!!!SMS-variant:
!!!SMS-altvar:
!!!NIFC-rismSourceID: 1001171381
!!!NIFC-rismChildID: 1001171381
!!!NIFC-islandoraID: pl-wumfc:7210
!!!URL-pdf-islandora: https://repozytorium.nifc.pl/islandora/object/pl-wumfc%3A7210/datastream/PDF/view
!!!URL-scan: https://polish.musicsources.pl/pl/lokalizacje/galeria/druki-muzyczne/12634/1 @EN{Scan on Polish Music Sources Website} @PL{Skany w portalu Dziedzictwo Muzyki Polskiej w otwartym dostępie}
!!!ONB-nifc: UWAGA: str. 43-46. Uwaga: proszę w pliku umieszczać obsadę, która występuje tylko w danej części.
!!!AIN: 1 alto 1 bass 2 piano 1 soprn 1 tenor 2 vox
!!!key:
**kern	**dynam	**kern	**dynam	**kern	**text	**text	**dynam	**kern	**text	**text	**text	**text	**dynam	**kern	**text	**text	**dynam	**kern	**text	**text	**dynam	**kern	**text	**text	**dynam	**kern	**text	**text	**dynam
*part8	*part8	*part7	*part7	*part6	*part6	*part6	*part6	*part5	*part5	*part5	*part5	*part5	*part5	*part4	*part4	*part4	*part4	*part3	*part3	*part3	*part3	*part2	*part2	*part2	*part2	*part1	*part1	*part1	*part1
*staff8	*	*staff7	*	*staff6	*staff6	*staff6	*	*staff5	*staff5	*staff5	*staff5	*staff5	*	*staff4	*staff4	*staff4	*	*staff3	*staff3	*staff3	*	*staff2	*staff2	*staff2	*	*staff1	*staff1	*staff1	*
*I"Fortepian.	*	*I"Fortepian.	*	*I"Bassy. Bassi.	*	*	*	*I"Tenory. Tenori.	*	*	*	*	*	*I"Alt	*	*	*	*I"Sopr.	*	*	*	*I"Akebar.	*	*	*	*I"Neala.	*	*	*
*I'[pf]	*	*I'[pf]	*	*I'[Coro B]	*	*	*	*I'[Coro T]	*	*	*	*	*	*I'[Coro A]	*	*	*	*I'[Coro S]	*	*	*	*I'A.	*	*	*	*I'N.	*	*	*
*ICklav	*	*ICklav	*	*ICvox	*	*	*	*ICvox	*	*	*	*	*	*ICvox	*	*	*	*ICvox	*	*	*	*ICvox	*	*	*	*ICvox	*	*	*
*Ipiano	*	*Ipiano	*	*Ibass	*	*	*	*Itenor	*	*	*	*	*	*Ialto	*	*	*	*Isoprn	*	*	*	*Ivox	*	*	*	*Ivox	*	*	*
*clefF4	*	*clefG2	*	*clefF4	*	*	*	*clefG2	*	*	*	*	*	*clefG2	*	*	*	*clefG2	*	*	*	*clefF4	*	*	*	*clefG2	*	*	*
*k[b-e-a-d-]	*	*k[b-e-a-d-]	*	*k[b-e-a-d-]	*	*	*	*k[b-e-a-d-]	*	*	*	*	*	*k[b-e-a-d-]	*	*	*	*k[b-e-a-d-]	*	*	*	*k[b-e-a-d-]	*	*	*	*k[b-e-a-d-]	*	*	*
*A-:	*	*A-:	*	*A-:	*	*	*	*A-:	*	*	*	*	*	*A-:	*	*	*	*A-:	*	*	*	*A-:	*	*	*	*A-:	*	*	*
*M4/4	*	*M4/4	*	*M4/4	*	*	*	*M4/4	*	*	*	*	*	*M4/4	*	*	*	*M4/4	*	*	*	*M4/4	*	*	*	*M4/4	*	*	*
*met(c)	*	*met(c)	*	*met(c)	*	*	*	*met(c)	*	*	*	*	*	*met(c)	*	*	*	*met(c)	*	*	*	*met(c)	*	*	*	*met(c)	*	*	*
=1	=1	=1	=1	=1	=1	=1	=1	=1	=1	=1	=1	=1	=1	=1	=1	=1	=1	=1	=1	=1	=1	=1	=1	=1	=1	=1	=1	=1	=1
!	!	!	!	!	!	!	!	!LO:TX:a:t=BRAMINI.	!	!	!	!	!	!	!	!	!	!	!	!	!	!	!	!	!	!	!	!	!
!	!	!LO:TX:a:B:t=Moderato.	!	!	!	!	!	!LO:TX:a:B:t=Moderato.	!	!	!	!	!	!	!	!	!	!	!	!	!	!	!	!	!	!	!	!	!
8.CC/L 8.C	.	8.c/L	f	4r	.	.	.	4r	.	.	.	.	.	1ryy	.	.	.	1ryy	.	.	.	1ryy	.	.	.	1ryy	.	.	.
!	!	!LO:SIC:v:s=16B	!	!	!	!	!	!	!	!	!	!	!	!	!	!	!	!	!	!	!	!	!	!	!	!	!	!	!
16BBBn/K 16BBn	.	16B-/K	.	.	.	.	.	.	.	.	.	.	.	.	.	.	.	.	.	.	.	.	.	.	.	.	.	.	.
8.CC/ 8.C	.	8.c/	.	8.r	.	.	.	8.r	.	.	.	.	.	.	.	.	.	.	.	.	.	.	.	.	.	.	.	.	.
!	!	!	!	!	!	!	!LO:DY:a	!	!	!	!	!	!LO:DY:a	!	!	!	!	!	!	!	!	!	!	!	!	!	!	!	!
16DDn/Jk 16Dn	.	16dn/Jk	.	16Dn\	Przed-	E-	f	16ddn\	Przed-	E-	.	.	f	.	.	.	.	.	.	.	.	.	.	.	.	.	.	.	.
4..EE-/ 4..GG 4..E-	.	4..G^/ 4..e-	.	(4..E-^\	-wie-	-ter-	.	(4..ee-^\	-wie-	-ter-	.	.	.	.	.	.	.	.	.	.	.	.	.	.	.	.	.	.	.
16DD/ 16D	.	16d/	.	16D\)	.	.	.	16dd\)	.	.	.	.	.	.	.	.	.	.	.	.	.	.	.	.	.	.	.	.	.
=2	=2	=2	=2	=2	=2	=2	=2	=2	=2	=2	=2	=2	=2	=2	=2	=2	=2	=2	=2	=2	=2	=2	=2	=2	=2	=2	=2	=2	=2
8.CC/L 8.C	.	8.c/L	.	4C/	-czny	-no,	.	4cc\	-czny	-no,	.	.	.	1ryy	.	.	.	1ryy	.	.	.	1ryy	.	.	.	1ryy	.	.	.
16BBBn/K 16BBn	.	16Bn/K	.	.	.	.	.	.	.	.	.	.	.	.	.	.	.	.	.	.	.	.	.	.	.	.	.	.	.
8.CC/ 8.C	.	8.c/	.	8.r	.	.	.	8.r	.	.	.	.	.	.	.	.	.	.	.	.	.	.	.	.	.	.	.	.	.
16DDn/Jk 16Dn	.	16dn/Jk	.	16Dn\	przed-	e-	.	16ddn\	przed-	e-	.	.	.	.	.	.	.	.	.	.	.	.	.	.	.	.	.	.	.
4..EE-/ 4..GG 4..E-	.	4..G^/ 4..e-	.	4..E-^\	-wie-	-ter-	.	4..ee-^\	-wie-	-ter-	.	.	.	.	.	.	.	.	.	.	.	.	.	.	.	.	.	.	.
16DD/ 16D	.	16d/	.	16D\	-czny!	-no!	.	16dd\	-czny!	-no!	.	.	.	.	.	.	.	.	.	.	.	.	.	.	.	.	.	.	.
!!LO:LB:g=original	!	!	!	!	!	!	!	!	!	!	!	!	!	!	!	!	!	!	!	!	!	!	!	!	!	!	!	!	!
=3	=3	=3	=3	=3	=3	=3	=3	=3	=3	=3	=3	=3	=3	=3	=3	=3	=3	=3	=3	=3	=3	=3	=3	=3	=3	=3	=3	=3	=3
4CC^/ 4C	.	4c^/	.	4C/	Nad	Sve-	.	4cc\	Nad	Sve-	.	.	.	1ryy	.	.	.	1ryy	.	.	.	1ryy	.	.	.	1ryy	.	.	.
8.EE-^/L 8.E-	.	8.e-^/L	.	8.E-\	na-	-la-	.	8.ee-\	na-	-la-	.	.	.	.	.	.	.	.	.	.	.	.	.	.	.	.	.	.	.
16CC/Jk 16C	.	16c/Jk	.	16C/	-szym	-ne il	.	16cc\	-szym	-ne il	.	.	.	.	.	.	.	.	.	.	.	.	.	.	.	.	.	.	.
*	*	*clefF4	*	*	*	*	*	*	*	*	*	*	*	*	*	*	*	*	*	*	*	*	*	*	*	*	*	*	*
4AAA-^/ 4AA-	.	4A-^\	.	4AA-/	czu-	tuo	.	4a-/	czu-	tuo	.	.	.	.	.	.	.	.	.	.	.	.	.	.	.	.	.	.	.
4GGG^/ 4GG	.	4G^\	.	4GG/	-waj	vo-	.	4g/	-waj	vo-	.	.	.	.	.	.	.	.	.	.	.	.	.	.	.	.	.	.	.
=4	=4	=4	=4	=4	=4	=4	=4	=4	=4	=4	=4	=4	=4	=4	=4	=4	=4	=4	=4	=4	=4	=4	=4	=4	=4	=4	=4	=4	=4
1GGG-X 1GG-X	.	1E- 1A- 1c	ff	1C	lo-	-le-	.	1cc	lo-	-le-	.	.	.	1ryy	.	.	.	1ryy	.	.	.	1ryy	.	.	.	1ryy	.	.	.
=5	=5	=5	=5	=5	=5	=5	=5	=5	=5	=5	=5	=5	=5	=5	=5	=5	=5	=5	=5	=5	=5	=5	=5	=5	=5	=5	=5	=5	=5
*	*	*^	*	*	*	*	*	*	*	*	*	*	*	*	*	*	*	*	*	*	*	*	*	*	*	*	*	*	*
8.FFF/L 8.FF	.	2d-/	2F\ 2A-	p	4D-\	-sem!	-re!	.	4dd-\	-sem!	-re!	.	.	.	1ryy	.	.	.	1ryy	.	.	.	1ryy	.	.	.	1ryy	.	.	.
16EEEn/K 16EEn	.	.	.	.	.	.	.	.	.	.	.	.	.	.	.	.	.	.	.	.	.	.	.	.	.	.	.	.	.	.
8.FFF/ 8.FF	.	.	.	.	4r	.	.	.	8.r	.	.	.	.	.	.	.	.	.	.	.	.	.	.	.	.	.	.	.	.	.
!	!	!	!	!	!	!	!	!	!	!	!	!	!	!LO:DY:a	!	!	!	!	!	!	!	!	!	!	!	!	!	!	!	!
16GGG/Jk 16GG	.	.	.	.	.	.	.	.	16g/	Przed-	E-	.	.	p	.	.	.	.	.	.	.	.	.	.	.	.	.	.	.	.
4..AAA-^/ 4..AA-	.	2A-/ 2c	8.F\L	.	2r	.	.	.	(<4..a-^>/	-wie-	-ter-	.	.	.	.	.	.	.	.	.	.	.	.	.	.	.	.	.	.	.
.	.	.	16En\K	.	.	.	.	.	.	.	.	.	.	.	.	.	.	.	.	.	.	.	.	.	.	.	.	.	.	.
.	.	.	8.F\	.	.	.	.	.	.	.	.	.	.	.	.	.	.	.	.	.	.	.	.	.	.	.	.	.	.	.
16GGG/ 16GG	.	.	16G\Jk	.	.	.	.	.	16g/)	.	.	.	.	.	.	.	.	.	.	.	.	.	.	.	.	.	.	.	.	.
!!LO:LB:g=original	!	!	!	!	!	!	!	!	!	!	!	!	!	!	!	!	!	!	!	!	!	!	!	!	!	!	!	!	!	!
=6	=6	=6	=6	=6	=6	=6	=6	=6	=6	=6	=6	=6	=6	=6	=6	=6	=6	=6	=6	=6	=6	=6	=6	=6	=6	=6	=6	=6	=6	=6
8.FFF/L 8.FF	.	2d-/	2F\ 2A-	.	4r	.	.	.	4f/	-czny!	-no.	.	.	.	1ryy	.	.	.	1ryy	.	.	.	1ryy	.	.	.	1ryy	.	.	.
16EEEn/K 16EEn	.	.	.	.	.	.	.	.	.	.	.	.	.	.	.	.	.	.	.	.	.	.	.	.	.	.	.	.	.	.
8.FFF/ 8.FF	.	.	.	.	8.r	.	.	.	4r	.	.	.	.	.	.	.	.	.	.	.	.	.	.	.	.	.	.	.	.	.
16GGG/Jk 16GG	.	.	.	.	16G\	Przed-	E-	.	.	.	.	.	.	.	.	.	.	.	.	.	.	.	.	.	.	.	.	.	.	.
4..AAA-^/ 4..AA-	.	2A-/ 2c	8.F\L	.	4..A-^\	-wie-	-ter-	.	2r	.	.	.	.	.	.	.	.	.	.	.	.	.	.	.	.	.	.	.	.	.
.	.	.	16En\K	.	.	.	.	.	.	.	.	.	.	.	.	.	.	.	.	.	.	.	.	.	.	.	.	.	.	.
.	.	.	8.F\	.	.	.	.	.	.	.	.	.	.	.	.	.	.	.	.	.	.	.	.	.	.	.	.	.	.	.
16GGG/ 16GG	.	.	16G\Jk	.	16G\	-czny!	-no!	.	.	.	.	.	.	.	.	.	.	.	.	.	.	.	.	.	.	.	.	.	.	.
=7	=7	=7	=7	=7	=7	=7	=7	=7	=7	=7	=7	=7	=7	=7	=7	=7	=7	=7	=7	=7	=7	=7	=7	=7	=7	=7	=7	=7	=7	=7
8.FFF/L 8.FF	.	4d-/	2F\ 2A-	.	4F\	Niech	Il	.	4a-\ 4dd-	Niech	Il	.	.	.	1ryy	.	.	.	1ryy	.	.	.	1ryy	.	.	.	1ryy	.	.	.
16EEE-/K 16EE-	.	.	.	.	.	.	.	.	.	.	.	.	.	.	.	.	.	.	.	.	.	.	.	.	.	.	.	.	.	.
8.DDD-/ 8.DD-	.	8.f/L	.	.	8.F\	świę-	li-	.	8.a-\ 8.ff	świę-	li-	.	.	.	.	.	.	.	.	.	.	.	.	.	.	.	.	.	.	.
16EEE-/Jk 16EE-	.	16e-/Jk	.	.	16F\	-tej	-bro	.	16a-\ 16ee-	-tej	-bro	.	.	.	.	.	.	.	.	.	.	.	.	.	.	.	.	.	.	.
4.FFF/ 4.FF	.	4e-/	4.F\ 4.A-	.	4.FF/ 4.F	księ-	san-	.	4a-\ 4ee-	księ-	san-	.	.	.	.	.	.	.	.	.	.	.	.	.	.	.	.	.	.	.
.	.	8d-/L	.	.	.	.	.	.	8a-\ 8dd-	-gi	-to	.	.	.	.	.	.	.	.	.	.	.	.	.	.	.	.	.	.	.
8FFF#X/ 8FF#X	.	8A-/J 8c	8E-\	.	8FF/ 8E-	-gi	-to	.	8a-\ 8cc	twa	fa-	.	.	.	.	.	.	.	.	.	.	.	.	.	.	.	.	.	.	.
=8	=8	=8	=8	=8	=8	=8	=8	=8	=8	=8	=8	=8	=8	=8	=8	=8	=8	=8	=8	=8	=8	=8	=8	=8	=8	=8	=8	=8	=8	=8
*	*	*	*	*	*^	*	*	*	*^	*	*	*	*	*	*	*	*	*	*	*	*	*	*	*	*	*	*	*	*	*
1GGG 1GG	.	2.G/ 2.c	8.E-\L	.	8.E-/	2.GG\	do-	par-	.	2.cc/	2.g\	do-	-vel-	.	.	.	1ryy	.	.	.	1ryy	.	.	.	1ryy	.	.	.	1ryy	.	.	.
.	.	.	16Dn\K	.	16Dn/	.	-tknie	-li	.	.	.	.	.	.	.	.	.	.	.	.	.	.	.	.	.	.	.	.	.	.	.	.
.	.	.	8.E-\	.	8.E-/	.	two-	par-	.	.	.	.	.	.	.	.	.	.	.	.	.	.	.	.	.	.	.	.	.	.	.	.
.	.	.	16F\Jk	.	16F/	.	-ja	-li or-	.	.	.	.	.	.	.	.	.	.	.	.	.	.	.	.	.	.	.	.	.	.	.	.
.	.	.	2D\	.	[4G/	.	dłoń	-mai	.	.	.	.	.	.	.	.	.	.	.	.	.	.	.	.	.	.	.	.	.	.	.	.
.	.	4G/ 4Bn	.	.	8G/]	4GG\	-tknie	-li or	.	4bn/	4g\	-tknie	-li or	.	.	.	.	.	.	.	.	.	.	.	.	.	.	.	.	.	.	.
.	.	.	.	.	8rG	.	.	.	.	.	.	.	.	.	.	.	.	.	.	.	.	.	.	.	.	.	.	.	.	.	.	.
*	*	*	*	*	*v	*v	*	*	*	*	*	*	*	*	*	*	*	*	*	*	*	*	*	*	*	*	*	*	*	*	*	*
*	*	*	*	*	*	*	*	*	*v	*v	*	*	*	*	*	*	*	*	*	*	*	*	*	*	*	*	*	*	*	*	*
*	*	*clefG2	*	*	*	*	*	*	*	*	*	*	*	*	*	*	*	*	*	*	*	*	*	*	*	*	*	*	*	*
!!LO:PB:g=original	!	!	!	!	!	!	!	!	!	!	!	!	!	!	!	!	!	!	!	!	!	!	!	!	!	!	!	!	!	!
=9	=9	=9	=9	=9	=9	=9	=9	=9	=9	=9	=9	=9	=9	=9	=9	=9	=9	=9	=9	=9	=9	=9	=9	=9	=9	=9	=9	=9	=9	=9
*	*	*Xtuplet	*Xtuplet	*	*	*	*	*	*	*	*	*	*	*	*	*	*	*	*	*	*	*	*	*	*	*	*	*	*	*
!	!	!	!	!	!	!	!	!	!	!	!	!	!	!	!	!	!	!	!	!	!	!	!	!	!	!	!LO:TX:a:i:t=dolce	!	!	!
!	!	!	!	!	!LO:TX:a:t=Bass.	!	!	!	!LO:TX:a:t=Ten.	!	!	!	!	!	!	!	!	!	!LO:TX:a:t=Sopr.	!	!	!	!LO:TX:a:t=Akebar.	!	!	!	!LO:TX:a:t=Neala.	!	!	!
8.AAA-/L 8.AA-	.	3.cc/	12c\L 12e-	p	4C/	.	.	.	4e-/ 4cc	dłoń.	mai.	.	.	.	4c/	.	.	.	4e-/ 4a-	Czu-	Nu-	.	2E-\	Czu-	Nu-	.	4cc\	Czu-	Nu-	.
.	.	.	12c\ 12e-	.	.	.	.	.	.	.	.	.	.	.	.	.	.	.	.	.	.	.	.	.	.	.	.	.	.	.
.	.	.	12c\J 12e-	.	.	.	.	.	.	.	.	.	.	.	.	.	.	.	.	.	.	.	.	.	.	.	.	.	.	.
16GGG/K 16GG	.	.	.	.	.	.	.	.	.	.	.	.	.	.	.	.	.	.	.	.	.	.	.	.	.	.	.	.	.	.
8.FFF/ 8.FF	.	.	12c\L 12e-	.	4r	.	.	.	4r	.	.	.	.	.	8.c/	.	.	.	8.e-/ 8.a-	-waj	-mi	.	.	.	.	.	8.cc\	-waj	-mi	.
.	.	.	12c\ 12e-	.	.	.	.	.	.	.	.	.	.	.	.	.	.	.	.	.	.	.	.	.	.	.	.	.	.	.
.	.	.	12c\J 12e-	.	.	.	.	.	.	.	.	.	.	.	.	.	.	.	.	.	.	.	.	.	.	.	.	.	.	.
16GGG/Jk 16GG	.	.	.	.	.	.	.	.	.	.	.	.	.	.	16e-/	.	.	.	16e-/ 16a-	Przed-	ve-	.	.	.	.	.	16cc\	Przed-	ve-	.
*	*	*	*tremolo	*	*	*	*	*	*	*	*	*	*	*	*	*	*	*	*	*	*	*	*	*	*	*	*	*	*	*
2AAA-/ 2AA-	.	3.cc-X/	12dn\L 12f	.	2r	.	.	.	2r	.	.	.	.	.	4.dn/	.	.	.	4.f/ 4.a-	-wie-	-glia-	.	4.F\	-waj	-mi,	.	4.cc-X\	-wie-	-glia-	.
.	.	.	12d\ 12f	.	.	.	.	.	.	.	.	.	.	.	.	.	.	.	.	.	.	.	.	.	.	.	.	.	.	.
.	.	.	12d\ 12f	.	.	.	.	.	.	.	.	.	.	.	.	.	.	.	.	.	.	.	.	.	.	.	.	.	.	.
.	.	.	12d\ 12f	.	.	.	.	.	.	.	.	.	.	.	.	.	.	.	.	.	.	.	.	.	.	.	.	.	.	.
.	.	.	12d\ 12f	.	.	.	.	.	.	.	.	.	.	.	.	.	.	.	.	.	.	.	.	.	.	.	.	.	.	.
.	.	.	.	.	.	.	.	.	.	.	.	.	.	.	8d/	.	.	.	8f/ 8a-	-czny	-te	.	8F\	Przed-	ve-	.	8cc-\	-czny	-te	.
.	.	.	12d\J 12f	.	.	.	.	.	.	.	.	.	.	.	.	.	.	.	.	.	.	.	.	.	.	.	.	.	.	.
=10	=10	=10	=10	=10	=10	=10	=10	=10	=10	=10	=10	=10	=10	=10	=10	=10	=10	=10	=10	=10	=10	=10	=10	=10	=10	=10	=10	=10	=10	=10
8.AAA-/L 8.AA-	.	2b-/	12d-X\L 12f	.	1r	.	.	.	1r	.	.	.	.	.	4d-X/	.	.	.	4f/	nad	su	.	2.A-\	-wie-	-glia-	.	4b-\	nad	sul-	.
.	.	.	12d-\ 12f	.	.	.	.	.	.	.	.	.	.	.	.	.	.	.	.	.	.	.	.	.	.	.	.	.	.	.
.	.	.	12d-\ 12f	.	.	.	.	.	.	.	.	.	.	.	.	.	.	.	.	.	.	.	.	.	.	.	.	.	.	.
16GGG/K 16GG	.	.	.	.	.	.	.	.	.	.	.	.	.	.	.	.	.	.	.	.	.	.	.	.	.	.	.	.	.	.
8.FFF/ 8.FF	.	.	12d-\ 12f	.	.	.	.	.	.	.	.	.	.	.	8.d-/	.	.	.	8.f/	na-	no-	.	.	.	.	.	8.b-\	je-	-la	.
.	.	.	12d-\ 12f	.	.	.	.	.	.	.	.	.	.	.	.	.	.	.	.	.	.	.	.	.	.	.	.	.	.	.
.	.	.	12d-\J 12f	.	.	.	.	.	.	.	.	.	.	.	.	.	.	.	.	.	.	.	.	.	.	.	.	.	.	.
16GGG/Jk 16GG	.	.	.	.	.	.	.	.	.	.	.	.	.	.	16d-/	.	.	.	16f/	-szym	-stra	.	.	.	.	.	16b-\	-go	sua	.
2AAA-/ 2AA-	.	2g/ 2b--	12d-\L 12e-	.	.	.	.	.	.	.	.	.	.	.	4.d-/	.	.	.	4.g-X/	lo-	sor-	.	.	.	.	.	4.b--\	lo-	sor-	.
.	.	.	12d-\ 12e-	.	.	.	.	.	.	.	.	.	.	.	.	.	.	.	.	.	.	.	.	.	.	.	.	.	.	.
.	.	.	12d-\ 12e-	.	.	.	.	.	.	.	.	.	.	.	.	.	.	.	.	.	.	.	.	.	.	.	.	.	.	.
.	.	.	12d-\ 12e-	.	.	.	.	.	.	.	.	.	.	.	.	.	.	.	.	.	.	.	4A-\	-czny	-te	.	.	.	.	.
.	.	.	12d-\ 12e-	.	.	.	.	.	.	.	.	.	.	.	.	.	.	.	.	.	.	.	.	.	.	.	.	.	.	.
.	.	.	.	.	.	.	.	.	.	.	.	.	.	.	8d-/	.	.	.	8g-/	-sem,	-te,	.	.	.	.	.	8b--\	-sem,	-te!	.
.	.	.	12d-\J 12e-	.	.	.	.	.	.	.	.	.	.	.	.	.	.	.	.	.	.	.	.	.	.	.	.	.	.	.
=11	=11	=11	=11	=11	=11	=11	=11	=11	=11	=11	=11	=11	=11	=11	=11	=11	=11	=11	=11	=11	=11	=11	=11	=11	=11	=11	=11	=11	=11	=11
*	*	*	*Xtremolo	*	*	*	*	*	*	*	*	*	*	*	*	*	*	*	*	*	*	*	*	*	*	*	*	*	*	*
!	!	!	!	!	!	!	!	!	!LO:TX:b:t=(w głębi sceny)	!	!	!	!	!	!	!	!	!	!	!	!	!	!	!	!	!	!	!	!	!
!	!	!	!	!	!	!	!	!	!LO:TX:b:i:t=(nel fondo della scena)	!	!	!	!	!	!	!	!	!	!	!	!	!	!	!	!	!	!	!	!	!
8.AAA-/L 8.AA-	.	[4a-/	12c\L 12e-	.	1r	.	.	.	2r	.	.	.	.	.	4c/	.	.	.	4e-/	Niech	Il	.	2.A-\	czu-	sul	.	4a-/	Niech	Pel	.
.	.	.	12c\ 12e-	.	.	.	.	.	.	.	.	.	.	.	.	.	.	.	.	.	.	.	.	.	.	.	.	.	.	.
.	.	.	12c\J 12e-	.	.	.	.	.	.	.	.	.	.	.	.	.	.	.	.	.	.	.	.	.	.	.	.	.	.	.
16GGG/K 16GG	.	.	.	.	.	.	.	.	.	.	.	.	.	.	.	.	.	.	.	.	.	.	.	.	.	.	.	.	.	.
8.FFF/ 8.FF	.	8.a-/L]	12c\L 12e-	.	.	.	.	.	.	.	.	.	.	.	8.c/	.	.	.	8.e-/	księ-	li-	.	.	.	.	.	8.a-/	księ-	li-	.
.	.	.	12c\ 12e-	.	.	.	.	.	.	.	.	.	.	.	.	.	.	.	.	.	.	.	.	.	.	.	.	.	.	.
.	.	.	12c\J 12e-	.	.	.	.	.	.	.	.	.	.	.	.	.	.	.	.	.	.	.	.	.	.	.	.	.	.	.
16GGG/Jk 16GG	.	16b-/Jk	.	.	.	.	.	.	.	.	.	.	.	.	16B-/	.	.	.	16e-/	-gi	-bro	.	.	.	.	.	16b-\	-gi	-bro	.
2AAA-/ 2AA-	.	4cc/	12c\L 12e-	.	.	.	.	.	4r	.	.	.	.	.	4..A-/	.	.	.	4..e-/	two-	san-	.	.	.	.	.	(4cc\	two-	san-	.
.	.	.	12c\ 12e-	.	.	.	.	.	.	.	.	.	.	.	.	.	.	.	.	.	.	.	.	.	.	.	.	.	.	.
.	.	.	12c\J 12e-	.	.	.	.	.	.	.	.	.	.	.	.	.	.	.	.	.	.	.	.	.	.	.	.	.	.	.
.	.	8.b-/L	12c\L 12e-	.	.	.	.	.	8.r	.	.	.	.	.	.	.	.	.	.	.	.	.	8.G\	-waj	vo-	.	8.b-\)	.	-to	.
.	.	.	12c\ 12e-	.	.	.	.	.	.	.	.	.	.	.	.	.	.	.	.	.	.	.	.	.	.	.	.	.	.	.
.	.	.	12c\J 12e-	.	.	.	.	.	.	.	.	.	.	.	.	.	.	.	.	.	.	.	.	.	.	.	.	.	.	.
!	!	!	!	!	!	!	!	!	!	!	!	!	!	!LO:DY:a	!	!	!	!	!	!	!	!	!	!	!	!	!	!	!	!
.	.	16a-/Jk	.	.	.	.	.	.	16a-/	Przed	E	.	.	mf	16e-/	.	.	.	16a-/	-ja	-to	.	16F\	nad	-stro	.	16cc\	-ja	fa	.
!!LO:LB:g=original	!	!	!	!	!	!	!	!	!	!	!	!	!	!	!	!	!	!	!	!	!	!	!	!	!	!	!	!	!	!
=12	=12	=12	=12	=12	=12	=12	=12	=12	=12	=12	=12	=12	=12	=12	=12	=12	=12	=12	=12	=12	=12	=12	=12	=12	=12	=12	=12	=12	=12	=12
!	!	!	!	!	!LO:TX:b:t=(w głębi sceny)	!	!	!	!	!	!	!	!	!	!	!	!	!	!	!	!	!	!	!	!	!	!	!	!	!
!	!	!	!	!	!LO:TX:b:i:t=(nel fondo della scena)	!	!	!	!	!	!	!	!	!	!	!	!	!	!	!	!	!	!	!	!	!	!	!	!	!
8.AAA-/L 8.AA-	.	2b-/	12d-\L 12e-	.	2r	.	.	.	8.a-/L	wie-	ter-	.	.	.	4..e-/	.	.	.	4..b-\	do-	sve-	.	4..E-\	na-	tem-	.	4..ee-\	do-	vel-	.
.	.	.	12d-\ 12e-	.	.	.	.	.	.	.	.	.	.	.	.	.	.	.	.	.	.	.	.	.	.	.	.	.	.	.
.	.	.	12d-\J 12e-	.	.	.	.	.	.	.	.	.	.	.	.	.	.	.	.	.	.	.	.	.	.	.	.	.	.	.
16GGG/K 16GG	.	.	.	.	.	.	.	.	16g/Jk	.	.	.	.	.	.	.	.	.	.	.	.	.	.	.	.	.	.	.	.	.
8.FFF/ 8.FF	.	.	12d-\L 12e-	.	.	.	.	.	8.f/L	-czny	-no	.	.	.	.	.	.	.	.	.	.	.	.	.	.	.	.	.	.	.
.	.	.	12d-\ 12e-	.	.	.	.	.	.	.	.	.	.	.	.	.	.	.	.	.	.	.	.	.	.	.	.	.	.	.
.	.	.	12d-\J 12e-	.	.	.	.	.	.	.	.	.	.	.	.	.	.	.	.	.	.	.	.	.	.	.	.	.	.	.
16GGG/Jk 16GG	.	.	.	.	.	.	.	.	16g/Jk	.	.	.	.	.	16e-/	.	.	.	16e-/	-tknie	-li il	.	16E-\	-szym	-pio,	.	16dd-\	-tknie	-li a-	.
2AAA-/ 2AA-	.	2cc/	12c\L 12e-	.	4r	.	.	.	4.a-/	czu-	ve-	.	.	.	8e-/	.	.	.	8a-/	dłoń.	ver.	.	4E-\	lo-	Nu-	.	8cc\	dłoń,	-mor.	.
.	.	.	12c\ 12e-	.	.	.	.	.	.	.	.	.	.	.	.	.	.	.	.	.	.	.	.	.	.	.	.	.	.	.
.	.	.	.	.	.	.	.	.	.	.	.	.	.	.	8r	.	.	.	8r	.	.	.	.	.	.	.	8r	.	.	.
.	.	.	12c\J 12e-	.	.	.	.	.	.	.	.	.	.	.	.	.	.	.	.	.	.	.	.	.	.	.	.	.	.	.
.	.	.	12c\L 12e-	.	8r	.	.	.	.	.	.	.	.	.	4e-/	.	.	.	4e-/	Racz	Glo-	.	4C/	-sem,	-mi,	.	8e-/L	Racz	Pro-	.
.	.	.	12c\ 12e-	.	.	.	.	.	.	.	.	.	.	.	.	.	.	.	.	.	.	.	.	.	.	.	.	.	.	.
.	.	.	.	.	8AA-/	Przed-	E-	mf	16a-/	-waj!	-glia!	.	.	.	.	.	.	.	.	.	.	.	.	.	.	.	8cc/J	.	.	.
.	.	.	12c\J 12e-	.	.	.	.	.	.	.	.	.	.	.	.	.	.	.	.	.	.	.	.	.	.	.	.	.	.	.
.	.	.	.	.	.	.	.	.	16r	.	.	.	.	.	.	.	.	.	.	.	.	.	.	.	.	.	.	.	.	.
=13	=13	=13	=13	=13	=13	=13	=13	=13	=13	=13	=13	=13	=13	=13	=13	=13	=13	=13	=13	=13	=13	=13	=13	=13	=13	=13	=13	=13	=13	=13
8.AAA-/L 8.AA-	.	4cc/	12c\L 12e-	.	8.AA-/L	-wie-	-ter-	.	1r	.	.	.	.	.	4..e-/	.	.	.	4..a-/	sam	-rio-	.	4E-\	Racz	che	.	4..cc\	sam	-pi-	.
.	.	.	12c\ 12e-	.	.	.	.	.	.	.	.	.	.	.	.	.	.	.	.	.	.	.	.	.	.	.	.	.	.	.
.	.	.	12c\J 12e-	.	.	.	.	.	.	.	.	.	.	.	.	.	.	.	.	.	.	.	.	.	.	.	.	.	.	.
16GGG/K 16GG	.	.	.	.	16GG/Jk	.	.	.	.	.	.	.	.	.	.	.	.	.	.	.	.	.	.	.	.	.	.	.	.	.
8.AAA-/ 8.AA-	.	8.cc/L	12e-\L 12a-	.	8.AA-/L	-czny	-no	.	.	.	.	.	.	.	.	.	.	.	.	.	.	.	8.A-X\	sam	non	.	.	.	.	.
.	.	.	12e-\ 12a-	.	.	.	.	.	.	.	.	.	.	.	.	.	.	.	.	.	.	.	.	.	.	.	.	.	.	.
.	.	.	12e-\J 12a-	.	.	.	.	.	.	.	.	.	.	.	.	.	.	.	.	.	.	.	.	.	.	.	.	.	.	.
16BBB-/Jk 16BB-	.	16cc/Jk	.	.	16BB-/Jk	.	.	.	.	.	.	.	.	.	16d#X/	.	.	.	16g#X/	prze-	-so il	.	16G#X\	prze-	l'in-	.	16cc\	prze-	-zio il	.
2BBBn^>/ 2BBn	.	4.bn/	12d#X\L 12f#X	.	4..BBn/	czu-	ve-	.	.	.	.	.	.	.	4d#/	.	.	.	4f#X/	-mó-	tem-	.	4..F#X\	-mó-	-col-	.	4bn\	-mo-	fa-	.
.	.	.	12d#\ 12f#	.	.	.	.	.	.	.	.	.	.	.	.	.	.	.	.	.	.	.	.	.	.	.	.	.	.	.
.	.	.	12d#\J 12f#	.	.	.	.	.	.	.	.	.	.	.	.	.	.	.	.	.	.	.	.	.	.	.	.	.	.	.
.	.	.	12d#\L 12f#	.	.	.	.	.	.	.	.	.	.	.	8.d#/	.	.	.	8.f#/	-wić	-pio	.	.	.	.	.	8.b\	-wić	-to	.
.	.	.	12d#\ 12f#	.	.	.	.	.	.	.	.	.	.	.	.	.	.	.	.	.	.	.	.	.	.	.	.	.	.	.
.	.	8b/	.	.	.	.	.	.	.	.	.	.	.	.	.	.	.	.	.	.	.	.	.	.	.	.	.	.	.	.
.	.	.	12d#\J 12f#	.	.	.	.	.	.	.	.	.	.	.	.	.	.	.	.	.	.	.	.	.	.	.	.	.	.	.
.	.	.	.	.	16BB/	-waj	-glia,	.	.	.	.	.	.	.	16d#/	.	.	.	16f#/	wy-	ren-	.	16BBn/	-wić	-ga	.	16b\	wy-	ar-	.
=14	=14	=14	=14	=14	=14	=14	=14	=14	=14	=14	=14	=14	=14	=14	=14	=14	=14	=14	=14	=14	=14	=14	=14	=14	=14	=14	=14	=14	=14	=14
8.CC#X/L 8.C#X	.	4an/	12c#X\L 12en	.	8.C#X/L	nad	su	.	1r	.	.	.	.	.	4..c#X/	.	.	.	4..en/	-ro-	-de-	.	4En\	wy-	on-	.	4..an/	-ro-	-ri-	.
.	.	.	12c#\ 12e	.	.	.	.	.	.	.	.	.	.	.	.	.	.	.	.	.	.	.	.	.	.	.	.	.	.	.
.	.	.	12c#\J 12e	.	.	.	.	.	.	.	.	.	.	.	.	.	.	.	.	.	.	.	.	.	.	.	.	.	.	.
16BBB#X/K 16BB#X	.	.	.	.	16BB#X/Jk	.	.	.	.	.	.	.	.	.	.	.	.	.	.	.	.	.	.	.	.	.	.	.	.	.
8.CC#/ 8.C#	.	8.a/L	12c#\L 12e	.	8.C#/	na-	no-	.	.	.	.	.	.	.	.	.	.	.	.	.	.	.	8.E\	-ro-	-ta	.	.	.	.	.
.	.	.	12c#\ 12e	.	.	.	.	.	.	.	.	.	.	.	.	.	.	.	.	.	.	.	.	.	.	.	.	.	.	.
.	.	.	12c#\J 12e	.	.	.	.	.	.	.	.	.	.	.	.	.	.	.	.	.	.	.	.	.	.	.	.	.	.	.
16CC#/Jk 16C#	.	16a/Jk	.	.	16C#/	-szym	-stra	.	.	.	.	.	.	.	16c#/	.	.	.	16e/	-czni	-te e	.	16E\	-czni	ne	.	16a/	-czni	-da al	.
2DDn^/ 2Dn	.	4.a-X/	12Bn\L 12f	.	4.Dn\	lo-	sor-	.	.	.	.	.	.	.	4.Bn/	.	.	.	4.fn/	gło-	for-	.	4Fn\	gło-	scem-	.	4.a-X/	gło-	for-	.
.	.	.	12B\ 12f	.	.	.	.	.	.	.	.	.	.	.	.	.	.	.	.	.	.	.	.	.	.	.	.	.	.	.
.	.	.	12B\J 12f	.	.	.	.	.	.	.	.	.	.	.	.	.	.	.	.	.	.	.	.	.	.	.	.	.	.	.
.	.	.	12B\L 12f	.	.	.	.	.	.	.	.	.	.	.	.	.	.	.	.	.	.	.	8BBn/	-sem	-pio.	.	.	.	.	.
.	.	.	12B\ 12f	.	.	.	.	.	.	.	.	.	.	.	.	.	.	.	.	.	.	.	.	.	.	.	.	.	.	.
.	.	8a-/	.	.	8D\	-sem	-te,	.	.	.	.	.	.	.	8B/	.	.	.	8f/	-sem	-te,	.	8r	.	.	.	8a-/	-sem	-te,	.
.	.	.	12B\J 12f	.	.	.	.	.	.	.	.	.	.	.	.	.	.	.	.	.	.	.	.	.	.	.	.	.	.	.
!!LO:PB:g=original	!	!	!	!	!	!	!	!	!	!	!	!	!	!	!	!	!	!	!	!	!	!	!	!	!	!	!	!	!	!
=15	=15	=15	=15	=15	=15	=15	=15	=15	=15	=15	=15	=15	=15	=15	=15	=15	=15	=15	=15	=15	=15	=15	=15	=15	=15	=15	=15	=15	=15	=15
8.EE-/L 8.E-	.	4g/	12B-\L 12e-	.	8.E-\L	Od	Ne ar-	.	2r	.	.	.	.	.	4B-X/	.	.	.	4e-/	Od	Ne ar-	.	4r	.	.	.	4g/	Ty	Su	.
.	.	.	12B-\ 12e-	.	.	.	.	.	.	.	.	.	.	.	.	.	.	.	.	.	.	.	.	.	.	.	.	.	.	.
.	.	.	12B-\J 12e-	.	.	.	.	.	.	.	.	.	.	.	.	.	.	.	.	.	.	.	.	.	.	.	.	.	.	.
16DDn/K 16Dn	.	.	.	.	16Dn\Jk	.	.	.	.	.	.	.	.	.	.	.	.	.	.	.	.	.	.	.	.	.	.	.	.	.
8.EE-/ 8.E-	.	8.a-/L	12B-\L 12f	.	8.E-\	po-	-ri-	.	.	.	.	.	.	.	8.B-/	.	.	.	8.f/	po-	-ri-	.	8.r	.	.	.	8.a-/	bo-	lui	.
.	.	.	12B-\ 12f	.	.	.	.	.	.	.	.	.	.	.	.	.	.	.	.	.	.	.	.	.	.	.	.	.	.	.
.	.	.	12B-\J 12g	.	.	.	.	.	.	.	.	.	.	.	.	.	.	.	.	.	.	.	.	.	.	.	.	.	.	.
16FF-X/Jk 16F-X	.	16b-/Jk	.	.	16F-X\	-ni-	-da il	.	.	.	.	.	.	.	16B-/	.	.	.	16g/	-ni-	-da il	.	16B-\	Od	Ch'io	.	16b-\	-ha-	non	.
8.EE-/L 8.E-	.	4.ee-/	12e-\L 12g	.	4..E-\	-że-	vo-	.	8.b-/L	Od	Ne ar-	.	.	.	4.e-/	.	.	.	4.g/	-że-	vo-	.	4..e-\	po-	pos-	.	4.ee-\	-te-	piom-	.
.	.	.	12e-\ 12g	.	.	.	.	.	.	.	.	.	.	.	.	.	.	.	.	.	.	.	.	.	.	.	.	.	.	.
.	.	.	12e-\J 12g	.	.	.	.	.	.	.	.	.	.	.	.	.	.	.	.	.	.	.	.	.	.	.	.	.	.	.
16An/K	.	.	.	.	.	.	.	.	16an/Jk	.	.	.	.	.	.	.	.	.	.	.	.	.	.	.	.	.	.	.	.	.
8.B-/	.	.	12e-\L 12g	.	.	.	.	.	8.b-\	po-	-ri-	.	.	.	.	.	.	.	.	.	.	.	.	.	.	.	.	.	.	.
.	.	.	12e-\ 12g	.	.	.	.	.	.	.	.	.	.	.	.	.	.	.	.	.	.	.	.	.	.	.	.	.	.	.
.	.	8dd-/	.	.	.	.	.	.	.	.	.	.	.	.	8e-/	.	.	.	8b-\	-nia	-stro	.	.	.	.	.	8dd-\	-ra	-bi	.
.	.	.	12e-\J 12g	.	.	.	.	.	.	.	.	.	.	.	.	.	.	.	.	.	.	.	.	.	.	.	.	.	.	.
16G/Jk	.	.	.	.	16E-\	-nia	-stro	.	16gn/	-ni-	-da il	.	.	.	.	.	.	.	.	.	.	.	16E-\	-ni-	-sa	.	.	.	.	.
=16	=16	=16	=16	=16	=16	=16	=16	=16	=16	=16	=16	=16	=16	=16	=16	=16	=16	=16	=16	=16	=16	=16	=16	=16	=16	=16	=16	=16	=16	=16
*^	*	*	*	*	*	*	*	*	*	*	*	*	*	*	*	*	*	*	*	*	*	*	*	*	*	*	*	*	*	*
4..A-/	8.E-\L	.	4cc-X/	12e-\L 12a-	.	8.E-\L	oł-	di-	.	4..a-^>/	-że-	vo-	.	.	.	4e-/	.	.	.	4a-/	oł-	di-	.	4..A-\	-że-	pre-	.	4cc-X\	przed	sde-	.
.	.	.	.	12e-\ 12a-	.	.	.	.	.	.	.	.	.	.	.	.	.	.	.	.	.	.	.	.	.	.	.	.	.	.	.
.	.	.	.	12e-\J 12a-	.	.	.	.	.	.	.	.	.	.	.	.	.	.	.	.	.	.	.	.	.	.	.	.	.	.	.
.	16Dn\K	.	.	.	.	16Dn\Jk	.	.	.	.	.	.	.	.	.	.	.	.	.	.	.	.	.	.	.	.	.	.	.	.	.
.	8.E-\	.	8.b-/L	12d-\L 12e-	.	8.E-\	-ta-	-vin	.	.	.	.	.	.	.	8.e-/	.	.	.	8.e-/	-ta-	-vin	.	.	.	.	.	8.b-\	zem-	-gno e	.
.	.	.	.	12d-\ 12e-	.	.	.	.	.	.	.	.	.	.	.	.	.	.	.	.	.	.	.	.	.	.	.	.	.	.	.
.	.	.	.	12e-\J	.	.	.	.	.	.	.	.	.	.	.	.	.	.	.	.	.	.	.	.	.	.	.	.	.	.	.
16c-X/	16E-\Jk	.	16a-/Jk	.	.	16E-\	-rze	po-	.	16cc-X\	-nia	-stro	.	.	.	16e-/	.	.	.	16a-/	-rze	po-	.	16E-\	-nia	-sar-	.	16a-/	-stą	fu-	.
*	*	*	*	*	*^	*	*	*	*	*	*	*	*	*	*	*	*	*	*	*	*	*	*	*	*	*	*	*	*	*	*
!	!	!	!	!	!LO:HP:a	!LO:HP:b=2	!	!	!	!	!	!	!	!	!	!	!	!	!	!	!	!	!	!	!	!	!	!	!	!	!	!
8.r	2E-^\	.	[4b-/	12e-\L 12g	<	<	4E-\	chroń.	-ter,	.	8.ee-^\L	oł-	di-	.	.	.	4g/	.	.	.	4b-\	chroń,	-ter,	.	4E-\	chron	-var.,	.	4b-\	chroń	-ror.	.
.	.	.	.	12e-\ 12g	.	.	.	.	.	.	.	.	.	.	.	.	.	.	.	.	.	.	.	.	.	.	.	.	.	.	.	.
.	.	.	.	12e-\J 12g	.	.	.	.	.	.	.	.	.	.	.	.	.	.	.	.	.	.	.	.	.	.	.	.	.	.	.	.
16d-/	.	.	.	.	.	.	.	.	.	.	16ddn\Jk	.	.	.	.	.	.	.	.	.	.	.	.	.	.	.	.	.	.	.	.	.
8.cn/L	.	.	12b-/L]	12e-\L 12g	.	.	4r	.	.	.	8.dd-X\	-ta-	-vin	.	.	.	4r	.	.	.	4r	.	.	.	4r	.	.	.	4r	.	.	.
.	.	.	12b-/	12e-\ 12g	.	.	.	.	.	.	.	.	.	.	.	.	.	.	.	.	.	.	.	.	.	.	.	.	.	.	.	.
.	.	.	12ccn/J	12e-\J 12an	.	.	.	.	.	.	.	.	.	.	.	.	.	.	.	.	.	.	.	.	.	.	.	.	.	.	.	.
16cn/Jk	.	.	.	.	[[	[[	.	.	.	.	16ccn\	-rze	di-	.	.	.	.	.	.	.	.	.	.	.	.	.	.	.	.	.	.	.
*v	*v	*	*	*	*v	*v	*	*	*	*	*	*	*	*	*	*	*	*	*	*	*	*	*	*	*	*	*	*	*	*	*	*
=17	=17	=17	=17	=17	=17	=17	=17	=17	=17	=17	=17	=17	=17	=17	=17	=17	=17	=17	=17	=17	=17	=17	=17	=17	=17	=17	=17	=17	=17	=17
!	!	!	!	!	!	!	!	!	!	!	!	!	!	!	!	!	!	!LO:DY:a	!	!	!	!LO:DY:a	!	!	!	!LO:DY:a	!	!	!	!LO:DY:a
8.BB-\L 8.B-	.	[6.dd-/	12d-\L 12f 12b-	f >	2r	.	.	.	(4..b-\	two-	-vin	.	.	.	(4..f/	.	.	f	(4..dd-\	Czu-	Nu-	f	2B-\	Czu-	Nu-	f	(4..dd-\	Czu-	Nu-	f
.	.	.	12d-\ 12f	.	.	.	.	.	.	.	.	.	.	.	.	.	.	.	.	.	.	.	.	.	.	.	.	.	.	.
.	.	.	12d-\J 12f	.	.	.	.	.	.	.	.	.	.	.	.	.	.	.	.	.	.	.	.	.	.	.	.	.	.	.
16FF\K 16F	.	.	.	.	.	.	.	.	.	.	.	.	.	.	.	.	.	.	.	.	.	.	.	.	.	.	.	.	.	.
8.GG\ 8.G	.	6dd-/]	12d-\L 12f	.	.	.	.	.	.	.	.	.	.	.	.	.	.	.	.	.	.	.	.	.	.	.	.	.	.	.
.	.	.	12d-\ 12f	.	.	.	.	.	.	.	.	.	.	.	.	.	.	.	.	.	.	.	.	.	.	.	.	.	.	.
.	.	12cc/	12d-\J 12e-	.	.	.	.	.	.	.	.	.	.	.	.	.	.	.	.	.	.	.	.	.	.	.	.	.	.	.
16AAn\Jk 16An	.	.	.	.	.	.	.	.	16cc\)	-je	po-	.	.	.	16e-/)	.	.	.	16cc\)	.	.	.	.	.	.	.	16cc\)	.	.	.
2BB-\ 2B-	.	4b-/	12d-\L 12f	] <	4r	.	.	.	8dd-\	chroń	-ter	.	.	.	8d-/	.	.	.	8b-\	-waj	-mi	.	8BB-/	-waj	-mi,	.	8b-\	-waj	-mi,	.
.	.	.	12d-\ 12f	.	.	.	.	.	.	.	.	.	.	.	.	.	.	.	.	.	.	.	.	.	.	.	.	.	.	.
.	.	.	.	.	.	.	.	.	8r	.	.	.	.	.	8r	.	.	.	8r	.	.	.	8D-\	Przed-	da	.	8r	.	.	.
.	.	.	12d-\J 12f	.	.	.	.	.	.	.	.	.	.	.	.	.	.	.	.	.	.	.	.	.	.	.	.	.	.	.
.	.	12d-/L 12f	4ryy	.	8r	.	.	.	8r	.	.	.	.	.	8r	.	.	.	8r	.	.	.	8F\	-wie-	col-	.	8r	.	.	.
.	.	12d-/ 12f 12b-	.	.	.	.	.	.	.	.	.	.	.	.	.	.	.	.	.	.	.	.	.	.	.	.	.	.	.	.
!	!	!	!	!	!	!	!	!LO:DY:a	!	!	!	!	!	!LO:DY:a	!	!	!	!LO:DY:a	!	!	!	!LO:DY:a	!	!	!	!LO:DY:a	!	!	!	!LO:DY:a
.	.	.	.	.	8B-\	.	.	ff	8dd-\	Przed	O	.	.	ff	8f/	.	.	ff	8f/	Przed	ve	ff	8B-\	-czny	-pi ar	ff	8f/	Przed	ve-	ff
.	.	12f/J 12b- 12dd-	.	[[	.	.	.	.	.	.	.	.	.	.	.	.	.	.	.	.	.	.	.	.	.	.	.	.	.	.
!!LO:LB:g=original	!	!	!	!	!	!	!	!	!	!	!	!	!	!	!	!	!	!	!	!	!	!	!	!	!	!	!	!	!	!
=18	=18	=18	=18	=18	=18	=18	=18	=18	=18	=18	=18	=18	=18	=18	=18	=18	=18	=18	=18	=18	=18	=18	=18	=18	=18	=18	=18	=18	=18	=18
8.BBB-/L 8.BB-	.	4ff/	12f\L 12b- 12dd-	ff	(4..B-^\	.	.	.	2ff^\	wie-	nu-	.	.	.	8.f/	wie-	glia-	.	((4..dd-\ 4..ff	wie-	glia-	.	(4..d-\	czu-	ver-	.	(4..ff\	wie-	-glia-	.
.	.	.	12f\ 12b- 12dd-	.	.	.	.	.	.	.	.	.	.	.	.	.	.	.	.	.	.	.	.	.	.	.	.	.	.	.
.	.	.	12g-X\J 12b- 12dd-	.	.	.	.	.	.	.	.	.	.	.	.	.	.	.	.	.	.	.	.	.	.	.	.	.	.	.
16CC/K 16C	.	.	.	.	.	.	.	.	.	.	.	.	.	.	16g-X/	-czny	-te	.	.	.	.	.	.	.	.	.	.	.	.	.
*	*	*	*	*	*	*	*	*	*	*	*	*	*	*	*Xbrackettup	*	*	*	*	*	*	*	*	*	*	*	*	*	*	*
8.DD-/ 8.D-	.	6ff/	12gn\L 12b-	.	.	.	.	.	.	.	.	.	.	.	(12gn/L	pa-	su	.	.	.	.	.	.	.	.	.	.	.	.	.
.	.	.	12a-X\ 12dd-	.	.	.	.	.	.	.	.	.	.	.	12a-X/J)	.	.	.	.	.	.	.	.	.	.	.	.	.	.	.
.	.	12ee-/	12an\J 12cc	.	.	.	.	.	.	.	.	.	.	.	12an/	-nie	di	.	.	.	.	.	.	.	.	.	.	.	.	.
16FF/Jk 16F	.	.	.	.	16F\)	.	.	.	.	.	.	.	.	.	.	.	.	.	16cc\)) 16ee-	.	.	.	16c\)	.	.	.	16ee-\)	.	.	.
4BB-\ 4B-	.	8dd-/	12b-\L	.	8BB-/	.	.	.	8b-\	-czny	-mi!	.	.	.	8b-\	nasz	noi	.	8b-\ 8dd-	-czny	-te!	.	8B-\	-waj.	-si,	.	8dd-\	-czny	-te!	.
.	.	.	12d-\ 12f	.	.	.	.	.	.	.	.	.	.	.	.	.	.	.	.	.	.	.	.	.	.	.	.	.	.	.
.	.	8ryy	.	.	8r	.	.	.	8r	.	.	.	.	.	8r	.	.	.	8r	.	.	.	8F\	Niech	da	.	8r	.	.	.
.	.	.	12d-\J 12f	.	.	.	.	.	.	.	.	.	.	.	.	.	.	.	.	.	.	.	.	.	.	.	.	.	.	.
*Xtuplet	*	*	*	*	*	*	*	*	*	*	*	*	*	*	*	*	*	*	*	*	*	*	*	*	*	*	*	*	*	*
12F\L	.	12d-/L 12f	4ryy	.	4r	.	.	.	4r	.	.	.	.	.	4r	.	.	.	4r	.	.	.	8.D-\	świę-	col-	.	4r	.	.	.
12D-\	.	12d-/ 12f 12b-	.	.	.	.	.	.	.	.	.	.	.	.	.	.	.	.	.	.	.	.	.	.	.	.	.	.	.	.
12BB-\J	.	12f/J 12b- 12dd-	.	.	.	.	.	.	.	.	.	.	.	.	.	.	.	.	.	.	.	.	.	.	.	.	.	.	.	.
.	.	.	.	.	.	.	.	.	.	.	.	.	.	.	.	.	.	.	.	.	.	.	16C/	-tej	-pi av-	.	.	.	.	.
=19	=19	=19	=19	=19	=19	=19	=19	=19	=19	=19	=19	=19	=19	=19	=19	=19	=19	=19	=19	=19	=19	=19	=19	=19	=19	=19	=19	=19	=19	=19
!	!	!	!	!	!	!	!	!	!	!	!	!	!	!	!	!	!	!	!	!	!	!	!	!	!	!	!	!	!	!LO:HP:a
8.BB-/L 8.B-	.	4dd-/	12f\L 12b-	.	8.B-\L	.	.	.	4ff\	Niech	Il	.	.	.	4B-/	.	.	.	4b-\	Niech	Il	.	4BB-/	księ-	-ver-	.	4dd-\	Niech	Il	<
.	.	.	12f\ 12b-	.	.	.	.	.	.	.	.	.	.	.	.	.	.	.	.	.	.	.	.	.	.	.	.	.	.	.
.	.	.	12f\J 12b-	.	.	.	.	.	.	.	.	.	.	.	.	.	.	.	.	.	.	.	.	.	.	.	.	.	.	.
16AA-/K 16A-	.	.	.	.	16A-\Jk	.	.	.	.	.	.	.	.	.	.	.	.	.	.	.	.	.	.	.	.	.	.	.	.	.
8.GG/ 8.G	.	8.ee-/L	12f\L 12b-	.	8.G\	.	.	.	8.ee-\	świę-	li-	.	.	.	8.B-/	.	.	.	8.b-\	świę-	li-	.	4B-\	-gi,	-si i	.	8.ee-\	świę-	li-	.
.	.	.	12f\ 12b-	.	.	.	.	.	.	.	.	.	.	.	.	.	.	.	.	.	.	.	.	.	.	.	.	.	.	.
.	.	.	12f\J 12b-	.	.	.	.	.	.	.	.	.	.	.	.	.	.	.	.	.	.	.	.	.	.	.	.	.	.	.
16FF/Jk 16F	.	16ff/Jk	.	.	16F\	.	.	.	16dd-\	-tej	-bro	.	.	.	16B-/	.	.	.	16b-\	-tej	-bro	.	.	.	.	.	16ff\	-tej	-bro	[
!	!	!	!	!	!	!	!	!	!	!	!	!	!	!	!	!	!	!	!	!	!	!	!	!	!	!	!	!	!	!LO:HP:a
4EE-/ 4E-	.	4..g/	12B-\L 12d-	.	4E-\	.	.	.	8.dd-\L	księ-	san-	.	.	.	8.B-/L	.	.	.	4.g/	księ-	san-	.	4B-\	świę-	sa-	.	4.ff\	księ-	san-	>
.	.	.	12B-\ 12d-	.	.	.	.	.	.	.	.	.	.	.	.	.	.	.	.	.	.	.	.	.	.	.	.	.	.	.
.	.	.	12B-\J 12c	.	.	.	.	.	.	.	.	.	.	.	.	.	.	.	.	.	.	.	.	.	.	.	.	.	.	.
.	.	.	.	.	.	.	.	.	16cc\Jk	.	.	.	.	.	16c/Jk	.	.	.	.	.	.	.	.	.	.	.	.	.	.	.
4DD-/ 4D-	.	.	12B-\L 12e-	.	4D-\	.	.	.	4b-\	-gi	-to	.	.	.	4e-/	.	.	.	.	.	.	.	4E-\	-tej	-cri al-	.	.	.	.	.
.	.	.	12B-\ 12e-	.	.	.	.	.	.	.	.	.	.	.	.	.	.	.	.	.	.	.	.	.	.	.	.	.	.	.
.	.	.	.	.	.	.	.	.	.	.	.	.	.	.	.	.	.	.	8e-/	-gi	-to	.	.	.	.	.	8g/	-gi	-to	]]
.	.	.	12B-\J 12e-	.	.	.	.	.	.	.	.	.	.	.	.	.	.	.	.	.	.	.	.	.	.	.	.	.	.	.
.	.	16g/	.	.	.	.	.	.	.	.	.	.	.	.	.	.	.	.	.	.	.	.	.	.	.	.	.	.	.	.
=20	=20	=20	=20	=20	=20	=20	=20	=20	=20	=20	=20	=20	=20	=20	=20	=20	=20	=20	=20	=20	=20	=20	=20	=20	=20	=20	=20	=20	=20	=20
8.CC/L 8.C	.	8.a-/L	12A-\L 12e-	.	8.C/	.	.	.	(4ee-\	do-	di-	.	.	.	8.e-/	.	.	.	8.e-/	do-	ci	.	4..E-\	księ-	-tar,	.	8.a-/	do-	ma-	.
.	.	.	12A-\ 12e-	.	.	.	.	.	.	.	.	.	.	.	.	.	.	.	.	.	.	.	.	.	.	.	.	.	.	.
.	.	.	12A-\J 12e-	.	.	.	.	.	.	.	.	.	.	.	.	.	.	.	.	.	.	.	.	.	.	.	.	.	.	.
!	!	!	!	!	!	!	!	!	!	!	!	!	!	!	!	!	!	!	!	!	!	!	!	!	!	!	!	!	!	!LO:HP:a:t=dimin.
16BBB-/K 16BB-	.	16b-/K	.	.	16BB-/	.	.	.	.	.	.	.	.	.	16e-/	.	.	.	16e-/	-tknie	di-	.	.	.	.	.	16b-\	-tknie	-ni-	>
!	!	!	!	!	!	!	!	!LO:HP:a:t=dimin.	!	!	!	!	!	!LO:HP:a:t=dimin.	!	!	!	!LO:HP:a:t=dimin.	!	!	!	!LO:HP:a:t=dimin.	!	!	!	!	!	!	!	!
8.BBB-/ 8.BB-	.	8.dd-/	12e-\L 12g	.	8.BB-/	.	.	>	8.dd-\)	-tknie	-sve-	.	.	>	8.e-/	.	.	>	8.g/	two-	-sve-	>	.	.	.	.	8.dd-\	two-	-fe-	.
.	.	.	12e-\ 12g	.	.	.	.	.	.	.	.	.	.	.	.	.	.	.	.	.	.	.	.	.	.	.	.	.	.	.
.	.	.	12e-\J 12a-	.	.	.	.	.	.	.	.	.	.	.	.	.	.	.	.	.	.	.	.	.	.	.	.	.	.	.
16AAA-/Jk 16AA-	.	16cc/Jk	.	.	16AA-/	.	.	.	16cc\	twa	-li il	.	.	.	16e-/	.	.	.	16a-/	-ja	-li il	.	16E-\	-gi	i	.	16cc\	-ja	-sti a-	.
*	*	*	*	*	*	*	*	*	*	*	*	*	*	*	*	*	*	*	*	*	*	*	*Xbrackettup	*	*	*	*	*	*	*
2EE-/	.	4b-/	12e-\L 12g	.	4E-\	.	.	.	4b-\	dłoń.	ver.	.	.	.	4e-/	.	.	.	4b-\	dłoń.	ver.	.	12G\L	do-	no-	.	4b-\	dłoń	-mor.	.
.	.	.	12d-'\ 12f	.	.	.	.	.	.	.	.	.	.	.	.	.	.	.	.	.	.	.	12F\J	.	.	.	.	.	.	.
.	.	.	12c'\J 12e-	.	.	.	.	.	.	.	.	.	.	.	.	.	.	.	.	.	.	.	12E-\	-tknie	-stri	.	.	.	.	.
*	*	*	*	*	*	*	*	*	*	*	*	*	*	*	*	*	*	*	*	*	*	*	*Xbrackettup	*	*	*	*	*	*	*
.	.	4r	12B-<'/L 12d-<	.	4r	.	.	.	4r	.	.	.	.	.	4r	.	.	.	4r	.	.	.	12D-/L	two-	sa-	.	4r	.	.	.
.	.	.	12A-<'/ 12c<	.	.	.	.	.	.	.	.	.	.	.	.	.	.	.	.	.	.	.	12C/J	.	.	.	.	.	.	.
.	.	.	12E-<'/J 12B-<	.	.	.	.	.	.	.	.	.	.	.	.	.	.	.	.	.	.	.	12BB-/	-ja	-cri al-	.	.	.	.	.
!!LO:PB:g=original	!	!	!	!	!	!	!	!	!	!	!	!	!	!	!	!	!	!	!	!	!	!	!	!	!	!	!	!	!	!
=21	=21	=21	=21	=21	=21	=21	=21	=21	=21	=21	=21	=21	=21	=21	=21	=21	=21	=21	=21	=21	=21	=21	=21	=21	=21	=21	=21	=21	=21	=21
*^	*	*	*	*	*	*	*	*	*	*	*	*	*	*	*	*	*	*	*	*	*	*	*	*	*	*	*	*	*	*
!	!	!	!	!	!	!	!	!	!LO:DY:a	!	!	!	!	!	!	!	!	!	!	!	!	!	!	!	!	!	!	!LO:TX:a:i:t=dolce	!	!	!LO:DY:a
(8.E-/L	1AA-	.	4cc/	12c\L 12e-	.	8.E-\L	.	.	pp	8.e-/L	Racz	Glo-	.	.	.	4A-/	.	.	.	4e-/	Racz	Glo-	.	[1AA-	dłoń	-tar	.	4cc\	Racz	Pro-	pp
.	.	.	.	12c\ 12e-	.	.	.	.	.	.	.	.	.	.	.	.	.	.	.	.	.	.	.	.	.	.	.	.	.	.	.
.	.	.	.	12c\J 12e-	.	.	.	.	.	.	.	.	.	.	.	.	.	.	.	.	.	.	.	.	.	.	.	.	.	.	.
16Dn/K	.	.	.	.	.	16Dn\Jk	.	.	.	16dn/Jk	.	.	.	.	.	.	.	.	.	.	.	.	.	.	.	.	.	.	.	.	.
8.E-/	.	.	8.cc/L	12c\L 12e-	.	8.E-\	.	.	.	8.e-/	sam	-rio-	.	.	.	8.A-/	.	.	.	8.e-/	sam	-rio-	.	.	.	.	.	8.cc\	sam	-pi-	.
.	.	.	.	12c\ 12e-	.	.	.	.	.	.	.	.	.	.	.	.	.	.	.	.	.	.	.	.	.	.	.	.	.	.	.
.	.	.	.	12c\J 12e-	.	.	.	.	.	.	.	.	.	.	.	.	.	.	.	.	.	.	.	.	.	.	.	.	.	.	.
16En/Jk	.	.	16cc/Jk	.	.	16En\	.	.	.	16en/	prze-	-so il	.	.	.	16A-/	.	.	.	16e-/	prze-	-so il	.	.	.	.	.	16cc\	prze-	-zio il	.
8.F/L	.	.	12bn/L	12dn\L	.	8.F\L	.	.	.	8.f/L	-mó-	tem-	.	.	.	4..f/	.	.	.	4..dn/	-mó-	tem-	.	.	.	.	.	4bn\	-mó-	fa-	.
.	.	.	12b/	12Bn\ 12d	.	.	.	.	.	.	.	.	.	.	.	.	.	.	.	.	.	.	.	.	.	.	.	.	.	.	.
.	.	.	12b/J	12B\J 12d	.	.	.	.	.	.	.	.	.	.	.	.	.	.	.	.	.	.	.	.	.	.	.	.	.	.	.
16E/K	.	.	.	.	.	16E\Jk	.	.	.	16e/Jk	.	.	.	.	.	.	.	.	.	.	.	.	.	.	.	.	.	.	.	.	.
8.F/	.	.	12b/L	12B\L 12d	.	8.F\	.	.	.	8.f/	-wić	-pio	.	.	.	.	.	.	.	.	.	.	.	.	.	.	.	8.b\	-wić	-to	.
.	.	.	12b/	12B\ 12d	.	.	.	.	.	.	.	.	.	.	.	.	.	.	.	.	.	.	.	.	.	.	.	.	.	.	.
.	.	.	12b/J	12B\J 12d	.	.	.	.	.	.	.	.	.	.	.	.	.	.	.	.	.	.	.	.	.	.	.	.	.	.	.
16F#X/Jk)	.	.	.	.	.	16F#X\	.	.	.	16f#X/	wy-	ren-	.	.	.	16Bn/	.	.	.	16d/	-wić	-pio	.	.	.	.	.	16b\	wy-	ar-	.
=22	=22	=22	=22	=22	=22	=22	=22	=22	=22	=22	=22	=22	=22	=22	=22	=22	=22	=22	=22	=22	=22	=22	=22	=22	=22	=22	=22	=22	=22	=22	=22
*	*	*	*	*	*^	*	*	*	*	*	*	*	*	*	*	*	*	*	*	*	*	*	*	*	*	*	*	*	*	*	*
!	!	!	!	!	!LO:HP:a	!LO:HP:b=2	!	!	!	!LO:HP:a	!	!	!	!	!	!LO:HP:a	!	!	!	!LO:HP:a	!	!	!	!LO:HP:a	!	!	!	!	!	!	!	!LO:HP:a
8.G/L	[2.AA-\	.	4b-X/	12d-X\L	<	<	8.G\L	.	.	<	8.g/L	-ro-	-de-	.	.	<	4B-X/	.	.	<	4d-X/	wy-	rem-	<	2.AA-/_	.	.	.	[4b-X\	-ro-	-ri-	<
.	.	.	.	12d-\ 12e-	.	.	.	.	.	.	.	.	.	.	.	.	.	.	.	.	.	.	.	.	.	.	.	.	.	.	.	.
.	.	.	.	12d-\J 12e-	.	.	.	.	.	.	.	.	.	.	.	.	.	.	.	.	.	.	.	.	.	.	.	.	.	.	.	.
16F#X/K	.	.	.	.	.	.	16F#X\Jk	.	.	.	16f#X/Jk	.	.	.	.	.	.	.	.	.	.	.	.	.	.	.	.	.	.	.	.	.
*	*	*	*	*	*	*	*	*	*	*	*	*	*	*	*	*	*	*	*	*	*	*	*	*	*	*	*	*	*Xbrackettup	*	*	*
8.G/	.	.	12d-/L 12e- 12b-	4ryy	.	.	8.G\	.	.	.	8.g/	-czni	-te	.	.	.	8.B-/L	.	.	.	8.e-/	-ro-	-de-	.	.	.	.	.	12b-/L]	.	.	.
.	.	.	12d-/ 12e- 12an	.	.	.	.	.	.	.	.	.	.	.	.	.	.	.	.	.	.	.	.	.	.	.	.	.	12an/J	.	-da	[
.	.	.	12d-/J 12e- 12a-X	.	[	[	.	.	.	.	.	.	.	.	.	.	.	.	.	.	.	.	.	.	.	.	.	.	12b-\	-czni	al	.
16A-/Jk	.	.	.	.	.	.	16A-\	.	.	[	16a-/	twej	e	.	.	[	16B-/Jk	.	.	.	16d-/	-czni	-te e	.	.	.	.	.	.	.	.	.
!	!	!	!	!	!	!	!	!	!	!LO:DY:a	!	!	!	!	!	!LO:DY:a	!	!	!	!	!	!	!	!LO:DY:a	!	!	!	!	!	!	!	!LO:HP:a
!	!	!	!	!	!LO:HP:a	!	!	!	!	!LO:HP:a	!	!	!	!	!	!LO:HP:a	!	!	!	!LO:DY:a	!	!	!	!LO:HP:a	!	!	!	!	!	!	!	!LO:DY:a
(4B-/	.	.	12g/L	12d-\L 12e-	>	.	4B-\	.	.	f >	4b-\	gło-	for-	.	.	f >	4..d-/	.	.	[ f >	4..b-\	gło-	for-	[ f >	.	.	.	.	4..ggn\	gło-	for-	f >
!	!	!	!	!	!	!LO:HP:b=2	!	!	!	!	!	!	!	!	!	!	!	!	!	!	!	!	!	!	!	!	!	!	!	!	!	!
.	.	.	12b-/	12d-\ 12e-	.	>	.	.	.	.	.	.	.	.	.	.	.	.	.	.	.	.	.	.	.	.	.	.	.	.	.	.
.	.	.	12ee-/J	12d-\J 12e-	.	.	.	.	.	.	.	.	.	.	.	.	.	.	.	.	.	.	.	.	.	.	.	.	.	.	.	.
12E-/)	8.AA-\]	.	(12ee-/L	12d-\ 12b-	.	.	8E-\	.	.	]	8e-/	-sem,	-te,	.	.	]	.	.	.	.	.	.	.	.	8AA-/]	.	.	.	.	.	.	.
12r	.	.	12gg/)	12r	]	.	.	.	.	.	.	.	.	.	.	.	.	.	.	.	.	.	.	.	.	.	.	.	.	.	.	.
.	.	.	.	.	.	.	8r	.	.	.	8r	.	.	.	.	.	.	.	.	.	.	.	.	.	8A-\	ach	Da	.	.	.	.	.
12dn/	.	.	12ff/J	12bn\	.	]	.	.	.	.	.	.	.	.	.	.	.	.	.	.	.	.	.	.	.	.	.	.	.	.	.	.
.	16r	.	.	.	.	.	.	.	.	.	.	.	.	.	.	.	16dn/	.	.	]]	16bn\	-sem,	-te	]]	.	.	.	.	16ff\	-sem	-te,	]]
*v	*v	*	*	*	*v	*v	*	*	*	*	*	*	*	*	*	*	*	*	*	*	*	*	*	*	*	*	*	*	*	*	*	*
=23	=23	=23	=23	=23	=23	=23	=23	=23	=23	=23	=23	=23	=23	=23	=23	=23	=23	=23	=23	=23	=23	=23	=23	=23	=23	=23	=23	=23	=23	=23
!	!	!	!	!	!	!	!	!LO:DY:a	!	!	!	!	!	!LO:DY:a	!	!	!	!LO:DY:a	!	!	!	!LO:DY:a	!	!	!	!LO:DY:a	!	!	!	!LO:DY:a
8.AA-/L	.	(4ee-/	12e-\L 12cc	p	4A-\	.	.	p	8.a-\L	Od	Ne ar-	.	.	p	4e-/	.	.	p	8.cc\L	Od	Ne ar-	p	4A-\	Od	col-	p	4ee-^\	ty	Su	p
.	.	.	12e-\ 12cc	.	.	.	.	.	.	.	.	.	.	.	.	.	.	.	.	.	.	.	.	.	.	.	.	.	.	.
.	.	.	12e-\J 12cc	.	.	.	.	.	.	.	.	.	.	.	.	.	.	.	.	.	.	.	.	.	.	.	.	.	.	.
16CC/K 16C	.	.	.	.	.	.	.	.	16cc\Jk	.	.	.	.	.	.	.	.	.	16a-\Jk	.	.	.	.	.	.	.	.	.	.	.
8.FF/ 8.F	.	8.ddn/L)	12dn\L 12a-	.	8.F\	.	.	.	8.b-\	po-	-ri-	.	.	.	8.dn/	.	.	.	8.a-/	po-	-ri-	.	8.A-\	po-	-pi	.	8.ddn\	bo-	lui	.
.	.	.	12d\ 12a-	.	.	.	.	.	.	.	.	.	.	.	.	.	.	.	.	.	.	.	.	.	.	.	.	.	.	.
.	.	.	12d\J	.	.	.	.	.	.	.	.	.	.	.	.	.	.	.	.	.	.	.	.	.	.	.	.	.	.	.
16FF/Jk 16F	.	16a-/Jk	.	.	16F\	.	.	.	16a-/	-ni-	-da il	.	.	.	16d/	.	.	.	16a-/	-ni-	-da il	.	16A-\	-ni-	av-	.	16a-/	-ha-	non	.
8.FF/L 8.F	.	(4dd-X/	12d-X\L 12a-	.	8.F\L	.	.	.	4a-/	-że-	vo-	.	.	.	4d-X/	.	.	.	4a-/	-że-	vo-	.	4A-\	-że-	-ver-	.	4dd-X\	-te-	piom-	.
.	.	.	12d-\ 12a-	.	.	.	.	.	.	.	.	.	.	.	.	.	.	.	.	.	.	.	.	.	.	.	.	.	.	.
.	.	.	12d-\J 12a-	.	.	.	.	.	.	.	.	.	.	.	.	.	.	.	.	.	.	.	.	.	.	.	.	.	.	.
16EE-/K 16E-	.	.	.	.	16E-\Jk	.	.	.	.	.	.	.	.	.	.	.	.	.	.	.	.	.	.	.	.	.	.	.	.	.
8.AA-/ 8.A-	.	8cc/L)	12c\L 12a-	.	8A-\	.	.	.	8a-/	-nia	-stro	.	.	.	8c/	.	.	.	8e-/	-nia	-stro	.	8A-\	-nie	-si	.	8cc\	-ra	-bi	.
.	.	.	12c\ 12d-	.	.	.	.	.	.	.	.	.	.	.	.	.	.	.	.	.	.	.	.	.	.	.	.	.	.	.
.	.	16r	.	.	16r	.	.	.	16r	.	.	.	.	.	16r	.	.	.	16r	.	.	.	16r	.	.	.	16r	.	.	.
.	.	.	12c\J	.	.	.	.	.	.	.	.	.	.	.	.	.	.	.	.	.	.	.	.	.	.	.	.	.	.	.
16E-/Jk	.	16e-/Jk	.	.	16AA-/	.	.	.	16e-/	oł-	di-	.	.	.	16c/	oł-	di-	.	16e-/	oł-	di	.	16A-\	oł-	ch'io	.	16e-/	przed	lo	.
!!LO:LB:g=original	!	!	!	!	!	!	!	!	!	!	!	!	!	!	!	!	!	!	!	!	!	!	!	!	!	!	!	!	!	!
=24	=24	=24	=24	=24	=24	=24	=24	=24	=24	=24	=24	=24	=24	=24	=24	=24	=24	=24	=24	=24	=24	=24	=24	=24	=24	=24	=24	=24	=24	=24
*^	*	*	*	*	*	*	*	*	*	*	*	*	*	*	*	*	*	*	*	*	*	*	*	*	*	*	*	*	*	*
2ryy	1EE- 1BB-	.	(8.d-/L 8.f-X	2A-\	sf	(2BB-/	.	.	.	[2e-/	-ta-	-vin	.	.	.	(2d-/	-ta-	-vin	.	4.d-/	-ta-	vin,	.	[2A-\	-ta-	pos-	.	8.f-X^>/L	ze-	sde-	.
.	.	.	16e-/K	.	.	.	.	.	.	.	.	.	.	.	.	.	.	.	.	.	.	.	.	.	.	.	.	16d-/Jk	.	.	.
.	.	.	8.d-/	.	.	.	.	.	.	.	.	.	.	.	.	.	.	.	.	.	.	.	.	.	.	.	.	16d-/LL	-mstą	-gno	.
.	.	.	.	.	.	.	.	.	.	.	.	.	.	.	.	.	.	.	.	.	.	.	.	.	.	.	.	16f-/JJ	.	.	.
.	.	.	.	.	.	.	.	.	.	.	.	.	.	.	.	.	.	.	.	8f-X/	-rze	di-	.	.	.	.	.	16a-\LL	przed	od	.
.	.	.	16f-/Jk)	.	.	.	.	.	.	.	.	.	.	.	.	.	.	.	.	.	.	.	.	.	.	.	.	16dd-\JJ	.	.	.
(<8.A-/L	.	.	((4..c/ 4..e-	2ryy	.	[4E-\)	.	.	.	4e-/_	.	.	.	.	.	[4e-/)	.	.	.	[4e-/	two-	-vin	.	8A-\]	.	.	.	4..cc\	ze-	il	.
.	.	.	.	.	.	.	.	.	.	.	.	.	.	.	.	.	.	.	.	.	.	.	.	8G\	-rze	-sa	.	.	.	.	.
16G/K	.	.	.	.	.	.	.	.	.	.	.	.	.	.	.	.	.	.	.	.	.	.	.	.	.	.	.	.	.	.	.
8.F/	.	.	.	.	.	8.E-\]	.	.	.	8.e-/]	.	.	.	.	.	8.e-/]	.	.	.	8.e-/]	.	.	.	8.F\	two-	pre-	.	.	.	.	.
16G/Jk)	.	.	16B-/)) 16d-	.	.	16E-\	.	.	.	16e-/	-rze	po-	.	.	.	16d-/	-rze	vo-	.	16e-/	-je	po-	.	16G\	-je	-ser-	.	16b-\	-mstą	fu-	.
*v	*v	*	*	*	*	*	*	*	*	*	*	*	*	*	*	*	*	*	*	*	*	*	*	*	*	*	*	*	*	*	*
*	*	*v	*v	*	*	*	*	*	*	*	*	*	*	*	*	*	*	*	*	*	*	*	*	*	*	*	*	*	*	*
=25	=25	=25	=25	=25	=25	=25	=25	=25	=25	=25	=25	=25	=25	=25	=25	=25	=25	=25	=25	=25	=25	=25	=25	=25	=25	=25	=25	=25	=25
4EE-/ 4BB- 4G	.	4d-/ 4e- 4b-	sf	4E-\	.	.	.	4e-/	chroń!	-ter!	.	.	.	4d-/	chroń	-ter!	.	4e-/	chroń!	-ter!	.	4E-\	chroń,	-rar!	.	4ee-\	chroń!	-ror!	.
4r	.	4r	.	4r	.	.	.	4r	.	.	.	.	.	4r	.	.	.	4r	.	.	.	8r	.	.	.	4r	.	.	.
.	.	.	.	.	.	.	.	.	.	.	.	.	.	.	.	.	.	.	.	.	.	8BB-/	RAcz	Ch'io	.	.	.	.	.
2r	.	2r	.	2r	.	.	.	2r	.	.	.	.	.	2r	.	.	.	2r	.	.	.	8C/	do	pos-	.	2r	.	.	.
.	.	.	.	.	.	.	.	.	.	.	.	.	.	.	.	.	.	.	.	.	.	8D-\	nas	-sa	.	.	.	.	.
.	.	.	.	.	.	.	.	.	.	.	.	.	.	.	.	.	.	.	.	.	.	8F\	sam	pre-	.	.	.	.	.
.	.	.	.	.	.	.	.	.	.	.	.	.	.	.	.	.	.	.	.	.	.	8A-\	prze-	-ser	.	.	.	.	.
=26	=26	=26	=26	=26	=26	=26	=26	=26	=26	=26	=26	=26	=26	=26	=26	=26	=26	=26	=26	=26	=26	=26	=26	=26	=26	=26	=26	=26	=26
1r	.	1r	.	1r	.	.	.	1r	.	.	.	.	.	1r	.	.	.	1r	.	.	.	4.G\	-mó-	var-	.	1r	.	.	.
.	.	.	.	.	.	.	.	.	.	.	.	.	.	.	.	.	.	.	.	.	.	8E-\	-wić	-da	.	.	.	.	.
.	.	.	.	.	.	.	.	.	.	.	.	.	.	.	.	.	.	.	.	.	.	8D-\	Twej	col-	.	.	.	.	.
.	.	.	.	.	.	.	.	.	.	.	.	.	.	.	.	.	.	.	.	.	.	8F\	wy-	-pi av-	.	.	.	.	.
.	.	.	.	.	.	.	.	.	.	.	.	.	.	.	.	.	.	.	.	.	.	8A-\	-ro-	-ver-	.	.	.	.	.
.	.	.	.	.	.	.	.	.	.	.	.	.	.	.	.	.	.	.	.	.	.	8c\	-czni	-si il	.	.	.	.	.
!!LO:PB:g=original	!	!	!	!	!	!	!	!	!	!	!	!	!	!	!	!	!	!	!	!	!	!	!	!	!	!	!	!	!
=27	=27	=27	=27	=27	=27	=27	=27	=27	=27	=27	=27	=27	=27	=27	=27	=27	=27	=27	=27	=27	=27	=27	=27	=27	=27	=27	=27	=27	=27
1r	.	1r	.	1r	.	.	.	1r	.	.	.	.	.	1r	.	.	.	1r	.	.	.	4.B-\	gło-	tem-	.	1r	.	.	.
.	.	.	.	.	.	.	.	.	.	.	.	.	.	.	.	.	.	.	.	.	.	8E-\	-sem.	-pio.	.	.	.	.	.
.	.	.	.	.	.	.	.	.	.	.	.	.	.	.	.	.	.	.	.	.	.	8G\	A	Non	.	.	.	.	.
.	.	.	.	.	.	.	.	.	.	.	.	.	.	.	.	.	.	.	.	.	.	8B-\	od	in-	.	.	.	.	.
.	.	.	.	.	.	.	.	.	.	.	.	.	.	.	.	.	.	.	.	.	.	8.d-\	po-	-col-	.	.	.	.	.
.	.	.	.	.	.	.	.	.	.	.	.	.	.	.	.	.	.	.	.	.	.	16c\	-ni-	-ga	.	.	.	.	.
=28	=28	=28	=28	=28	=28	=28	=28	=28	=28	=28	=28	=28	=28	=28	=28	=28	=28	=28	=28	=28	=28	=28	=28	=28	=28	=28	=28	=28	=28
*	*	*	*	*	*	*	*	*	*	*	*	*	*	*	*	*	*	*	*	*	*	*^	*	*	*	*	*	*	*
1r	.	1r	.	1r	.	.	.	1r	.	.	.	.	.	1r	.	.	.	1r	.	.	.	([4e-\	2ryy	-że-	l'on-	.	1r	.	.	.
.	.	.	.	.	.	.	.	.	.	.	.	.	.	.	.	.	.	.	.	.	.	16e-\LL]	.	.	.	.	.	.	.	.
.	.	.	.	.	.	.	.	.	.	.	.	.	.	.	.	.	.	.	.	.	.	16d-\	.	.	.	.	.	.	.	.
.	.	.	.	.	.	.	.	.	.	.	.	.	.	.	.	.	.	.	.	.	.	16B-\	.	.	.	.	.	.	.	.
.	.	.	.	.	.	.	.	.	.	.	.	.	.	.	.	.	.	.	.	.	.	16G\JJ)	.	.	.	.	.	.	.	.
.	.	.	.	.	.	.	.	.	.	.	.	.	.	.	.	.	.	.	.	.	.	8E-\	4ryy	-nia,	-ta	.	.	.	.	.
.	.	.	.	.	.	.	.	.	.	.	.	.	.	.	.	.	.	.	.	.	.	8D-\	.	oł-	i	.	.	.	.	.
.	.	.	.	.	.	.	.	.	.	.	.	.	.	.	.	.	.	.	.	.	.	8.F/	8.BB-\	-ta-	sa-	.	.	.	.	.
.	.	.	.	.	.	.	.	.	.	.	.	.	.	.	.	.	.	.	.	.	.	16AA-/	16AA-\	-rze	-cri al-	.	.	.	.	.
*	*	*	*	*	*	*	*	*	*	*	*	*	*	*	*	*	*	*	*	*	*	*v	*v	*	*	*	*	*	*	*
=29	=29	=29	=29	=29	=29	=29	=29	=29	=29	=29	=29	=29	=29	=29	=29	=29	=29	=29	=29	=29	=29	=29	=29	=29	=29	=29	=29	=29	=29
1r;	.	1r;	.	4r	.	.	.	4r	.	.	.	.	.	4r	.	.	.	4r	.	.	.	8GG/	chroń,	-tar,	.	1r;	.	.	.
.	.	.	.	.	.	.	.	.	.	.	.	.	.	.	.	.	.	.	.	.	.	8r	.	.	.	.	.	.	.
!	!	!	!	!	!	!	!LO:DY:a	!	!	!	!	!	!LO:DY:a	!	!	!	!LO:DY:a	!	!	!	!LO:DY:a	!	!	!	!	!	!	!	!
.	.	.	.	4G\	.	.	p	4b-\	Oł-	i	.	.	p	4d-/	.	.	p	4e-/	Oł-	i	p	4EE-/	oł-	i	.	.	.	.	.
.	.	.	.	4F\	.	.	.	4a-/	-ta-	sa-	.	.	.	4d-/	.	.	.	4e-/	-ta-	sa-	.	4FF/	-ta-	sa-	.	.	.	.	.
.	.	.	.	4E-;\	.	.	.	4b-;\	-rze	-cri al-	.	.	.	4b-;\	.	.	.	4e-;/	-rze	-cri al-	.	4GG;/	-rze	-cri al-	.	.	.	.	.
!!LO:LB:g=original	!	!	!	!	!	!	!	!	!	!	!	!	!	!	!	!	!	!	!	!	!	!	!	!	!	!	!	!	!
=30||	=30||	=30||	=30||	=30||	=30||	=30||	=30||	=30||	=30||	=30||	=30||	=30||	=30||	=30||	=30||	=30||	=30||	=30||	=30||	=30||	=30||	=30||	=30||	=30||	=30||	=30||	=30||	=30||	=30||
*	*	*tremolo	*	*	*	*	*	*	*	*	*	*	*	*	*	*	*	*	*	*	*	*	*	*	*	*	*	*	*
!	!	!LO:TX:a:B:t=Un poco più mosso.	!	!	!	!	!	!	!	!	!	!	!	!	!	!	!	!	!	!	!	!	!	!	!	!LO:TX:b:t=(od dala się z pokłonami w głębi sceny).	!	!	!
!	!	!	!	!	!	!	!	!	!	!	!	!	!	!	!	!	!	!	!	!	!	!	!	!	!	!LO:TX:b:i:t=(con ripetuti inchini si avanza verso il fondo della scena).	!	!	!
!	!	!LO:TX:a:t=51	!	!	!	!	!	!	!	!	!	!	!	!	!	!	!	!	!	!	!	!	!	!	!	!LO:TX:a:B:t=Un poco più mosso.	!	!	!
*	*	*	*	*	*	*	*	*	*	*	*	*	*	*	*	*	*	*	*	*	*	*	*	*	*	*	*	*	*
8.AAA-/L 8.AA-	.	32e-/LLL 32a-	p	[1AA-	.	.	.	[1a-	chroń!	-tar!	.	.	.	[1a-	.	.	.	[1a-	chroń!	-tar!	.	[2AA-/	chroń.	-tar.	.	1r	.	.	.
.	.	32c/	.	.	.	.	.	.	.	.	.	.	.	.	.	.	.	.	.	.	.	.	.	.	.	.	.	.	.
.	.	32e-/ 32a-	.	.	.	.	.	.	.	.	.	.	.	.	.	.	.	.	.	.	.	.	.	.	.	.	.	.	.
.	.	32c/	.	.	.	.	.	.	.	.	.	.	.	.	.	.	.	.	.	.	.	.	.	.	.	.	.	.	.
.	.	32e-/ 32a-	.	.	.	.	.	.	.	.	.	.	.	.	.	.	.	.	.	.	.	.	.	.	.	.	.	.	.
.	.	32c/	.	.	.	.	.	.	.	.	.	.	.	.	.	.	.	.	.	.	.	.	.	.	.	.	.	.	.
16GGG/K 16GG	.	32e-/ 32a-	.	.	.	.	.	.	.	.	.	.	.	.	.	.	.	.	.	.	.	.	.	.	.	.	.	.	.
.	.	32c/	.	.	.	.	.	.	.	.	.	.	.	.	.	.	.	.	.	.	.	.	.	.	.	.	.	.	.
8.AAA-/ 8.AA-	.	32e-/ 32a-	.	.	.	.	.	.	.	.	.	.	.	.	.	.	.	.	.	.	.	.	.	.	.	.	.	.	.
.	.	32c/	.	.	.	.	.	.	.	.	.	.	.	.	.	.	.	.	.	.	.	.	.	.	.	.	.	.	.
.	.	32e-/ 32a-	.	.	.	.	.	.	.	.	.	.	.	.	.	.	.	.	.	.	.	.	.	.	.	.	.	.	.
.	.	32c/	.	.	.	.	.	.	.	.	.	.	.	.	.	.	.	.	.	.	.	.	.	.	.	.	.	.	.
.	.	32e-/ 32a-	.	.	.	.	.	.	.	.	.	.	.	.	.	.	.	.	.	.	.	.	.	.	.	.	.	.	.
.	.	32c/	.	.	.	.	.	.	.	.	.	.	.	.	.	.	.	.	.	.	.	.	.	.	.	.	.	.	.
16BBB--/Jk 16BB--	.	32e-/ 32a-	.	.	.	.	.	.	.	.	.	.	.	.	.	.	.	.	.	.	.	.	.	.	.	.	.	.	.
.	.	32c/JJJ	.	.	.	.	.	.	.	.	.	.	.	.	.	.	.	.	.	.	.	.	.	.	.	.	.	.	.
2AAA-/ 2AA-	.	32a-/LLL 32cc	.	.	.	.	.	.	.	.	.	.	.	.	.	.	.	.	.	.	.	8AA-/]	.	.	.	.	.	.	.
.	.	32e-/	.	.	.	.	.	.	.	.	.	.	.	.	.	.	.	.	.	.	.	.	.	.	.	.	.	.	.
.	.	32a-/ 32cc	.	.	.	.	.	.	.	.	.	.	.	.	.	.	.	.	.	.	.	.	.	.	.	.	.	.	.
.	.	32e-/	.	.	.	.	.	.	.	.	.	.	.	.	.	.	.	.	.	.	.	.	.	.	.	.	.	.	.
.	.	32a-/ 32cc	.	.	.	.	.	.	.	.	.	.	.	.	.	.	.	.	.	.	.	8r	.	.	.	.	.	.	.
.	.	32e-/	.	.	.	.	.	.	.	.	.	.	.	.	.	.	.	.	.	.	.	.	.	.	.	.	.	.	.
.	.	32a-/ 32cc	.	.	.	.	.	.	.	.	.	.	.	.	.	.	.	.	.	.	.	.	.	.	.	.	.	.	.
.	.	32e-/	.	.	.	.	.	.	.	.	.	.	.	.	.	.	.	.	.	.	.	.	.	.	.	.	.	.	.
.	.	32a-/ 32cc	.	.	.	.	.	.	.	.	.	.	.	.	.	.	.	.	.	.	.	4r	.	.	.	.	.	.	.
.	.	32e-/	.	.	.	.	.	.	.	.	.	.	.	.	.	.	.	.	.	.	.	.	.	.	.	.	.	.	.
.	.	32a-/ 32cc	.	.	.	.	.	.	.	.	.	.	.	.	.	.	.	.	.	.	.	.	.	.	.	.	.	.	.
.	.	32e-/	.	.	.	.	.	.	.	.	.	.	.	.	.	.	.	.	.	.	.	.	.	.	.	.	.	.	.
.	.	32a-/ 32cc	.	.	.	.	.	.	.	.	.	.	.	.	.	.	.	.	.	.	.	.	.	.	.	.	.	.	.
.	.	32e-/	.	.	.	.	.	.	.	.	.	.	.	.	.	.	.	.	.	.	.	.	.	.	.	.	.	.	.
.	.	32a-/ 32cc	.	.	.	.	.	.	.	.	.	.	.	.	.	.	.	.	.	.	.	.	.	.	.	.	.	.	.
.	.	32e-/JJJ	.	.	.	.	.	.	.	.	.	.	.	.	.	.	.	.	.	.	.	.	.	.	.	.	.	.	.
=31	=31	=31	=31	=31	=31	=31	=31	=31	=31	=31	=31	=31	=31	=31	=31	=31	=31	=31	=31	=31	=31	=31	=31	=31	=31	=31	=31	=31	=31
8.AAA-/L 8.AA-	.	32a-/LLL 32dd-	.	1AA-]	.	.	.	1a-]	.	.	.	.	.	1a-]	.	.	.	1a-]	.	.	.	1r	.	.	.	1r	.	.	.
.	.	32f/	.	.	.	.	.	.	.	.	.	.	.	.	.	.	.	.	.	.	.	.	.	.	.	.	.	.	.
.	.	32a-/ 32dd-	.	.	.	.	.	.	.	.	.	.	.	.	.	.	.	.	.	.	.	.	.	.	.	.	.	.	.
.	.	32f/	.	.	.	.	.	.	.	.	.	.	.	.	.	.	.	.	.	.	.	.	.	.	.	.	.	.	.
.	.	32a-/ 32dd-	.	.	.	.	.	.	.	.	.	.	.	.	.	.	.	.	.	.	.	.	.	.	.	.	.	.	.
.	.	32f/	.	.	.	.	.	.	.	.	.	.	.	.	.	.	.	.	.	.	.	.	.	.	.	.	.	.	.
16GGG/K 16GG	.	32a-/ 32dd-	.	.	.	.	.	.	.	.	.	.	.	.	.	.	.	.	.	.	.	.	.	.	.	.	.	.	.
.	.	32f/	.	.	.	.	.	.	.	.	.	.	.	.	.	.	.	.	.	.	.	.	.	.	.	.	.	.	.
8.AAA-/ 8.AA-	.	32a-/ 32dd-	.	.	.	.	.	.	.	.	.	.	.	.	.	.	.	.	.	.	.	.	.	.	.	.	.	.	.
.	.	32f/	.	.	.	.	.	.	.	.	.	.	.	.	.	.	.	.	.	.	.	.	.	.	.	.	.	.	.
.	.	32a-/ 32dd-	.	.	.	.	.	.	.	.	.	.	.	.	.	.	.	.	.	.	.	.	.	.	.	.	.	.	.
.	.	32f/	.	.	.	.	.	.	.	.	.	.	.	.	.	.	.	.	.	.	.	.	.	.	.	.	.	.	.
.	.	32a-/ 32dd-	.	.	.	.	.	.	.	.	.	.	.	.	.	.	.	.	.	.	.	.	.	.	.	.	.	.	.
.	.	32f/	.	.	.	.	.	.	.	.	.	.	.	.	.	.	.	.	.	.	.	.	.	.	.	.	.	.	.
16BBB--/Jk 16BB--	.	32a-/ 32dd-	.	.	.	.	.	.	.	.	.	.	.	.	.	.	.	.	.	.	.	.	.	.	.	.	.	.	.
.	.	32f/JJJ	.	.	.	.	.	.	.	.	.	.	.	.	.	.	.	.	.	.	.	.	.	.	.	.	.	.	.
2AAA-/ 2AA-	.	32a-/LLL 32cc-X	.	.	.	.	.	.	.	.	.	.	.	.	.	.	.	.	.	.	.	.	.	.	.	.	.	.	.
.	.	32f-X/	.	.	.	.	.	.	.	.	.	.	.	.	.	.	.	.	.	.	.	.	.	.	.	.	.	.	.
.	.	32a-/ 32cc-	.	.	.	.	.	.	.	.	.	.	.	.	.	.	.	.	.	.	.	.	.	.	.	.	.	.	.
.	.	32f-/	.	.	.	.	.	.	.	.	.	.	.	.	.	.	.	.	.	.	.	.	.	.	.	.	.	.	.
.	.	32a-/ 32cc-	.	.	.	.	.	.	.	.	.	.	.	.	.	.	.	.	.	.	.	.	.	.	.	.	.	.	.
.	.	32f-/	.	.	.	.	.	.	.	.	.	.	.	.	.	.	.	.	.	.	.	.	.	.	.	.	.	.	.
.	.	32a-/ 32cc-	.	.	.	.	.	.	.	.	.	.	.	.	.	.	.	.	.	.	.	.	.	.	.	.	.	.	.
.	.	32f-/JJJ	.	.	.	.	.	.	.	.	.	.	.	.	.	.	.	.	.	.	.	.	.	.	.	.	.	.	.
.	.	32f-/LLL 32a- 32dd-	.	.	.	.	.	.	.	.	.	.	.	.	.	.	.	.	.	.	.	.	.	.	.	.	.	.	.
.	.	32f-/ 32a- 32dd-	.	.	.	.	.	.	.	.	.	.	.	.	.	.	.	.	.	.	.	.	.	.	.	.	.	.	.
.	.	32f-/ 32a- 32dd-	.	.	.	.	.	.	.	.	.	.	.	.	.	.	.	.	.	.	.	.	.	.	.	.	.	.	.
.	.	32f-/ 32a- 32dd-	.	.	.	.	.	.	.	.	.	.	.	.	.	.	.	.	.	.	.	.	.	.	.	.	.	.	.
.	.	32f-/ 32a- 32ddn	.	.	.	.	.	.	.	.	.	.	.	.	.	.	.	.	.	.	.	.	.	.	.	.	.	.	.
.	.	32f-/ 32a- 32dd	.	.	.	.	.	.	.	.	.	.	.	.	.	.	.	.	.	.	.	.	.	.	.	.	.	.	.
.	.	32f-/ 32a- 32dd	.	.	.	.	.	.	.	.	.	.	.	.	.	.	.	.	.	.	.	.	.	.	.	.	.	.	.
.	.	32f-/JJJ 32a- 32dd	.	.	.	.	.	.	.	.	.	.	.	.	.	.	.	.	.	.	.	.	.	.	.	.	.	.	.
=32	=32	=32	=32	=32	=32	=32	=32	=32	=32	=32	=32	=32	=32	=32	=32	=32	=32	=32	=32	=32	=32	=32	=32	=32	=32	=32	=32	=32	=32
8.AAA-/L 8.AA-	.	32a-\LLL 32ff-X	<	2A-\	.	.	.	2a-/	Od	Ne ar-	.	.	.	2a-/	.	.	.	2a-/	Od	Ne ar-	.	1r	.	.	.	2r	.	.	.
.	.	32f-X\	.	.	.	.	.	.	.	.	.	.	.	.	.	.	.	.	.	.	.	.	.	.	.	.	.	.	.
.	.	32a-\ 32ff-	.	.	.	.	.	.	.	.	.	.	.	.	.	.	.	.	.	.	.	.	.	.	.	.	.	.	.
.	.	32f-\	.	.	.	.	.	.	.	.	.	.	.	.	.	.	.	.	.	.	.	.	.	.	.	.	.	.	.
.	.	32a-\ 32ff-	.	.	.	.	.	.	.	.	.	.	.	.	.	.	.	.	.	.	.	.	.	.	.	.	.	.	.
.	.	32f-\	.	.	.	.	.	.	.	.	.	.	.	.	.	.	.	.	.	.	.	.	.	.	.	.	.	.	.
16GGG/K 16GG	.	32a-\ 32ff-	.	.	.	.	.	.	.	.	.	.	.	.	.	.	.	.	.	.	.	.	.	.	.	.	.	.	.
.	.	32f-\	.	.	.	.	.	.	.	.	.	.	.	.	.	.	.	.	.	.	.	.	.	.	.	.	.	.	.
8.AAA-/ 8.AA-	.	32a-\ 32ff-	.	.	.	.	.	.	.	.	.	.	.	.	.	.	.	.	.	.	.	.	.	.	.	.	.	.	.
.	.	32f-\	.	.	.	.	.	.	.	.	.	.	.	.	.	.	.	.	.	.	.	.	.	.	.	.	.	.	.
.	.	32a-\ 32ff-	.	.	.	.	.	.	.	.	.	.	.	.	.	.	.	.	.	.	.	.	.	.	.	.	.	.	.
.	.	32f-\	.	.	.	.	.	.	.	.	.	.	.	.	.	.	.	.	.	.	.	.	.	.	.	.	.	.	.
.	.	32a-\ 32ff-	.	.	.	.	.	.	.	.	.	.	.	.	.	.	.	.	.	.	.	.	.	.	.	.	.	.	.
.	.	32f-\	.	.	.	.	.	.	.	.	.	.	.	.	.	.	.	.	.	.	.	.	.	.	.	.	.	.	.
16BBB--/Jk 16BB--	.	32a-\ 32ff-	.	.	.	.	.	.	.	.	.	.	.	.	.	.	.	.	.	.	.	.	.	.	.	.	.	.	.
.	.	32f-X\JJJ	.	.	.	.	.	.	.	.	.	.	.	.	.	.	.	.	.	.	.	.	.	.	.	.	.	.	.
!	!	!	!	!	!	!	!LO:HP:a:t=molto cresc.	!	!	!	!	!	!LO:HP:a:t=molto cresc.	!	!	!	!LO:HP:a:t=molto cresc.	!	!	!	!LO:HP:a:t=molto cresc.	!	!	!	!	!	!	!	!
2AAA-/ 2AA-	.	32ddn\LLL 32ffn	.	4A-\	.	.	<	4a-/	po-	-ri-	.	.	<	4a-/	.	.	<	4a-/	po-	-ri-	<	.	.	.	.	4r	.	.	.
.	.	32a-\	.	.	.	.	.	.	.	.	.	.	.	.	.	.	.	.	.	.	.	.	.	.	.	.	.	.	.
.	.	32dd\ 32ff	.	.	.	.	.	.	.	.	.	.	.	.	.	.	.	.	.	.	.	.	.	.	.	.	.	.	.
.	.	32a-\	.	.	.	.	.	.	.	.	.	.	.	.	.	.	.	.	.	.	.	.	.	.	.	.	.	.	.
.	.	32dd\ 32ff	.	.	.	.	.	.	.	.	.	.	.	.	.	.	.	.	.	.	.	.	.	.	.	.	.	.	.
.	.	32a-\	.	.	.	.	.	.	.	.	.	.	.	.	.	.	.	.	.	.	.	.	.	.	.	.	.	.	.
.	.	32dd\ 32ff	.	.	.	.	.	.	.	.	.	.	.	.	.	.	.	.	.	.	.	.	.	.	.	.	.	.	.
.	.	32a-\	.	.	.	.	.	.	.	.	.	.	.	.	.	.	.	.	.	.	.	.	.	.	.	.	.	.	.
.	.	32dd\ 32ff	.	4A-\	.	.	.	4a-/	-ni-	-da il	.	.	.	4a-/	.	.	.	4a-/	-ni-	-da il	.	.	.	.	.	4ff\	Przed-	O	.
.	.	32a-\	.	.	.	.	.	.	.	.	.	.	.	.	.	.	.	.	.	.	.	.	.	.	.	.	.	.	.
.	.	32dd\ 32ff	.	.	.	.	.	.	.	.	.	.	.	.	.	.	.	.	.	.	.	.	.	.	.	.	.	.	.
.	.	32a-\	.	.	.	.	.	.	.	.	.	.	.	.	.	.	.	.	.	.	.	.	.	.	.	.	.	.	.
.	.	32dd\ 32ff	.	.	.	.	.	.	.	.	.	.	.	.	.	.	.	.	.	.	.	.	.	.	.	.	.	.	.
.	.	32a-\	.	.	.	.	.	.	.	.	.	.	.	.	.	.	.	.	.	.	.	.	.	.	.	.	.	.	.
.	.	32dd\ 32ff	.	.	.	.	.	.	.	.	.	.	.	.	.	.	.	.	.	.	.	.	.	.	.	.	.	.	.
.	.	32a-\JJJ	[[	.	.	.	.	.	.	.	.	.	.	.	.	.	.	.	.	.	.	.	.	.	.	.	.	.	.
=33	=33	=33	=33	=33	=33	=33	=33	=33	=33	=33	=33	=33	=33	=33	=33	=33	=33	=33	=33	=33	=33	=33	=33	=33	=33	=33	=33	=33	=33
*^	*	*^	*	*	*	*	*	*^	*	*	*	*	*	*	*	*	*	*	*	*	*	*	*	*	*	*	*	*	*
!	!	!	!	!	!LO:HP:b:t=molto cresc.	!	!	!	!	!	!	!	!	!	!	!	!	!	!	!	!	!	!	!	!	!	!	!	!	!	!	!LO:HP:a
8.AAA-/L 8.AA-	2ryy	.	32ee-\LLL 32gg-X	2ryy	<	4C/	.	.	.	4a-/	2ryy	-że-	vo-	.	.	.	4e-/	.	.	.	4a-/	-że-	vo-	.	1r	.	.	.	4gg-X\	-wie-	nu-	<
.	.	.	32a-\	.	.	.	.	.	.	.	.	.	.	.	.	.	.	.	.	.	.	.	.	.	.	.	.	.	.	.	.	.
.	.	.	32ee-\ 32gg-	.	.	.	.	.	.	.	.	.	.	.	.	.	.	.	.	.	.	.	.	.	.	.	.	.	.	.	.	.
.	.	.	32a-\	.	.	.	.	.	.	.	.	.	.	.	.	.	.	.	.	.	.	.	.	.	.	.	.	.	.	.	.	.
.	.	.	32ee-\ 32gg-	.	.	.	.	.	.	.	.	.	.	.	.	.	.	.	.	.	.	.	.	.	.	.	.	.	.	.	.	.
.	.	.	32a-\	.	.	.	.	.	.	.	.	.	.	.	.	.	.	.	.	.	.	.	.	.	.	.	.	.	.	.	.	.
16GGGn/K 16GGn	.	.	32ee-\ 32gg-	.	.	.	.	.	.	.	.	.	.	.	.	.	.	.	.	.	.	.	.	.	.	.	.	.	.	.	.	.
.	.	.	32a-\JJJ	.	.	.	.	.	.	.	.	.	.	.	.	.	.	.	.	.	.	.	.	.	.	.	.	.	.	.	.	.
8.AAA-/ 8.AA-	.	.	8.a-/L 8.dd-X 8.ff	.	.	8.D-\	.	.	.	8.a-/	.	-nia	-stro	.	.	.	8.f/	.	.	.	8.a-/	-nia	-stro	.	.	.	.	.	8.ff\	-czny	-mi	.
16AAA-/Jk 16AA-	.	.	16dn/Jk 16f 16a-X	.	.	16Dn\	oł-	di-	.	16a-/	.	oł-	di-	.	.	.	16f-X/	.	.	.	16a-/	oł-	di	.	.	.	.	.	16a-/	ty	ve-	.
8.EE-/L	2EE-\	.	32a-/LLL 32cc	4ryy	.	4.E-\	-ta-	-vin	.	4a-/	4ryy	-ta-	-vin	.	.	.	4e-/	.	.	.	4a-/	-ta-	vin	.	.	.	.	.	4cc\	czu-	-glia-	.
.	.	.	32e-/	.	.	.	.	.	.	.	.	.	.	.	.	.	.	.	.	.	.	.	.	.	.	.	.	.	.	.	.	.
.	.	.	32a-/ 32cc	.	.	.	.	.	.	.	.	.	.	.	.	.	.	.	.	.	.	.	.	.	.	.	.	.	.	.	.	.
.	.	.	32e-/	.	.	.	.	.	.	.	.	.	.	.	.	.	.	.	.	.	.	.	.	.	.	.	.	.	.	.	.	.
.	.	.	32a-/ 32cc	.	.	.	.	.	.	.	.	.	.	.	.	.	.	.	.	.	.	.	.	.	.	.	.	.	.	.	.	.
.	.	.	32e-/	.	.	.	.	.	.	.	.	.	.	.	.	.	.	.	.	.	.	.	.	.	.	.	.	.	.	.	.	.
16E-/K	.	.	32a-/ 32cc	.	.	.	.	.	.	.	.	.	.	.	.	.	.	.	.	.	.	.	.	.	.	.	.	.	.	.	.	.
.	.	.	32e-/JJJ	.	.	.	.	.	.	.	.	.	.	.	.	.	.	.	.	.	.	.	.	.	.	.	.	.	.	.	.	.
*	*	*	*	*	*	*	*	*	*	*	*	*	*	*	*	*	*	*	*	*	*	*	*	*	*	*	*	*	*	*	*	*
8.E-/	.	.	(16b-/LL	16e-\LL 16gn	.	.	.	.	.	8.ee-/	4ee-\	-rze	po	.	.	.	4g/	.	.	.	(8g\L	-rze	po-	.	.	.	.	.	4b-X\	-waj	-te	.
.	.	.	16ee-/	16e-\ 16g	.	.	.	.	.	.	.	.	.	.	.	.	.	.	.	.	.	.	.	.	.	.	.	.	.	.	.	.
.	.	.	16b-/	16e-\ 16g	.	8E-\	-rze	po	.	.	.	.	.	.	.	.	.	.	.	.	8ee-\J)	.	.	.	.	.	.	.	.	.	.	.
16E-/Jk	.	.	16ee-/JJ)	16e-\JJ 16g	.	.	.	.	.	16ee-/	.	.	.	.	.	.	.	.	.	.	.	.	.	.	.	.	.	.	.	.	.	.
*v	*v	*	*	*	*	*	*	*	*	*	*	*	*	*	*	*	*	*	*	*	*	*	*	*	*	*	*	*	*	*	*	*
*	*	*v	*v	*	*	*	*	*	*	*	*	*	*	*	*	*	*	*	*	*	*	*	*	*	*	*	*	*	*	*	*
!!LO:LB:g=original	!	!	!	!	!	!	!	!	!	!	!	!	!	!	!	!	!	!	!	!	!	!	!	!	!	!	!	!	!	!
=34	=34	=34	=34	=34	=34	=34	=34	=34	=34	=34	=34	=34	=34	=34	=34	=34	=34	=34	=34	=34	=34	=34	=34	=34	=34	=34	=34	=34	=34	=34
!	!	!	!	!	!	!	!LO:DY:a	!	!	!	!	!	!	!	!	!	!	!LO:DY:a	!	!	!	!LO:DY:a	!	!	!	!	!	!	!	!LO:DY:a
8.C\L 8.c	.	32a-\LLL 32ee-	ff	8.c\	Nie-	ter.	ff	(2aa-/	2ee-\	chroń	ter.	.	.	ff	2a-/	.	.	ff	2ee-\	chroń	-ter.	ff	1ryy	.	.	.	(2ee-\	ach	sul	ff
.	.	32e-\	.	.	.	.	.	.	.	.	.	.	.	.	.	.	.	.	.	.	.	.	.	.	.	.	.	.	.	.
.	.	32a-\ 32ee-	.	.	.	.	.	.	.	.	.	.	.	.	.	.	.	.	.	.	.	.	.	.	.	.	.	.	.	.
.	.	32e-\	.	.	.	.	.	.	.	.	.	.	.	.	.	.	.	.	.	.	.	.	.	.	.	.	.	.	.	.
.	.	32a-\ 32ee-	.	.	.	.	.	.	.	.	.	.	.	.	.	.	.	.	.	.	.	.	.	.	.	.	.	.	.	.
.	.	32e-\	.	.	.	.	.	.	.	.	.	.	.	.	.	.	.	.	.	.	.	.	.	.	.	.	.	.	.	.
16BBn\K 16Bn	.	32a-\ 32ee-	.	16Bn\	-chaj	Il	.	.	.	.	.	.	.	.	.	.	.	.	.	.	.	.	.	.	.	.	.	.	.	.
.	.	32e-\	.	.	.	.	.	.	.	.	.	.	.	.	.	.	.	.	.	.	.	.	.	.	.	.	.	.	.	.
8.C\ 8.c	.	32a-\ 32ee-	.	8.c\	świę-	li-	.	.	.	.	.	.	.	.	.	.	.	.	.	.	.	.	.	.	.	.	.	.	.	.
.	.	32e-\	.	.	.	.	.	.	.	.	.	.	.	.	.	.	.	.	.	.	.	.	.	.	.	.	.	.	.	.
.	.	32a-\ 32ee-	.	.	.	.	.	.	.	.	.	.	.	.	.	.	.	.	.	.	.	.	.	.	.	.	.	.	.	.
.	.	32e-\	.	.	.	.	.	.	.	.	.	.	.	.	.	.	.	.	.	.	.	.	.	.	.	.	.	.	.	.
.	.	32a-\ 32ee-	.	.	.	.	.	.	.	.	.	.	.	.	.	.	.	.	.	.	.	.	.	.	.	.	.	.	.	.
.	.	32e-\	.	.	.	.	.	.	.	.	.	.	.	.	.	.	.	.	.	.	.	.	.	.	.	.	.	.	.	.
16D-\Jk 16d-	.	32a-\ 32ee-	.	16d-\	-tej	-bro	.	.	.	.	.	.	.	.	.	.	.	.	.	.	.	.	.	.	.	.	.	.	.	.
.	.	32e-\JJJ	.	.	.	.	.	.	.	.	.	.	.	.	.	.	.	.	.	.	.	.	.	.	.	.	.	.	.	.
2BB^\ 2B	.	32dd-\LLL 32een	.	2B\	księ-	san-	.	2gg/	8.een\	Nie-	Og-	.	.	.	8.g/	.	.	.	8.dd-\	Nie-	Og-	.	.	.	.	.	2een\)	.	.	.
.	.	32g\	.	.	.	.	.	.	.	.	.	.	.	.	.	.	.	.	.	.	.	.	.	.	.	.	.	.	.	.
.	.	32dd-\ 32ee	.	.	.	.	.	.	.	.	.	.	.	.	.	.	.	.	.	.	.	.	.	.	.	.	.	.	.	.
.	.	32g\	.	.	.	.	.	.	.	.	.	.	.	.	.	.	.	.	.	.	.	.	.	.	.	.	.	.	.	.
.	.	32dd-\ 32ee	.	.	.	.	.	.	.	.	.	.	.	.	.	.	.	.	.	.	.	.	.	.	.	.	.	.	.	.
.	.	32g\	.	.	.	.	.	.	.	.	.	.	.	.	.	.	.	.	.	.	.	.	.	.	.	.	.	.	.	.
.	.	32dd-\ 32ee	.	.	.	.	.	.	16ee\	-chaj	-gi il	.	.	.	16g/	.	.	.	16dd-\	-chaj	-gi il	.	.	.	.	.	.	.	.	.
.	.	32g\	.	.	.	.	.	.	.	.	.	.	.	.	.	.	.	.	.	.	.	.	.	.	.	.	.	.	.	.
.	.	32dd-\ 32ee	.	.	.	.	.	.	8.ee\	świę-	li-	.	.	.	8.g/	.	.	.	8.dd-\	świę-	li-	.	.	.	.	.	.	.	.	.
.	.	32g\	.	.	.	.	.	.	.	.	.	.	.	.	.	.	.	.	.	.	.	.	.	.	.	.	.	.	.	.
.	.	32dd-\ 32ee	.	.	.	.	.	.	.	.	.	.	.	.	.	.	.	.	.	.	.	.	.	.	.	.	.	.	.	.
.	.	32g\	.	.	.	.	.	.	.	.	.	.	.	.	.	.	.	.	.	.	.	.	.	.	.	.	.	.	.	.
.	.	32dd-\ 32ee	.	.	.	.	.	.	.	.	.	.	.	.	.	.	.	.	.	.	.	.	.	.	.	.	.	.	.	.
.	.	32g\	.	.	.	.	.	.	.	.	.	.	.	.	.	.	.	.	.	.	.	.	.	.	.	.	.	.	.	.
.	.	32dd-\ 32ee	.	.	.	.	.	.	16ee\	-tej	-bro	.	.	.	16g/	.	.	.	16dd-\	-tej	-bro	.	.	.	.	.	.	.	.	.
.	.	32g\JJJ	.	.	.	.	.	.	.	.	.	.	.	.	.	.	.	.	.	.	.	.	.	.	.	.	.	.	.	.
=35	=35	=35	=35	=35	=35	=35	=35	=35	=35	=35	=35	=35	=35	=35	=35	=35	=35	=35	=35	=35	=35	=35	=35	=35	=35	=35	=35	=35	=35	=35
8.AA-\L 8.A-	.	32cc\LLL 32ff	.	8.A-\	-gi	-to	.	(2ff/)	2ff\	księ-	san-	.	.	.	2c/	.	.	.	2cc\	księ-	san-	.	1ryy	.	.	.	(2ff\	Bra-	for-	.
.	.	32f\	.	.	.	.	.	.	.	.	.	.	.	.	.	.	.	.	.	.	.	.	.	.	.	.	.	.	.	.
.	.	32cc\ 32ff	.	.	.	.	.	.	.	.	.	.	.	.	.	.	.	.	.	.	.	.	.	.	.	.	.	.	.	.
.	.	32f\	.	.	.	.	.	.	.	.	.	.	.	.	.	.	.	.	.	.	.	.	.	.	.	.	.	.	.	.
.	.	32cc\ 32ff	.	.	.	.	.	.	.	.	.	.	.	.	.	.	.	.	.	.	.	.	.	.	.	.	.	.	.	.
.	.	32f\	.	.	.	.	.	.	.	.	.	.	.	.	.	.	.	.	.	.	.	.	.	.	.	.	.	.	.	.
16GG\K 16G	.	32cc\ 32ff	.	16G\	twa	ci	.	.	.	.	.	.	.	.	.	.	.	.	.	.	.	.	.	.	.	.	.	.	.	.
.	.	32f\	.	.	.	.	.	.	.	.	.	.	.	.	.	.	.	.	.	.	.	.	.	.	.	.	.	.	.	.
8.AA-\ 8.A-	.	32cc\ 32ff	.	8.A-\	do-	sve-	.	.	.	.	.	.	.	.	.	.	.	.	.	.	.	.	.	.	.	.	.	.	.	.
.	.	32f\	.	.	.	.	.	.	.	.	.	.	.	.	.	.	.	.	.	.	.	.	.	.	.	.	.	.	.	.
.	.	32cc\ 32ff	.	.	.	.	.	.	.	.	.	.	.	.	.	.	.	.	.	.	.	.	.	.	.	.	.	.	.	.
.	.	32f\	.	.	.	.	.	.	.	.	.	.	.	.	.	.	.	.	.	.	.	.	.	.	.	.	.	.	.	.
.	.	32cc\ 32ff	.	.	.	.	.	.	.	.	.	.	.	.	.	.	.	.	.	.	.	.	.	.	.	.	.	.	.	.
.	.	32f\	.	.	.	.	.	.	.	.	.	.	.	.	.	.	.	.	.	.	.	.	.	.	.	.	.	.	.	.
16BB-\Jk 16B-	.	32cc\ 32ff	.	16B-\	-tknie	-li il	.	.	.	.	.	.	.	.	.	.	.	.	.	.	.	.	.	.	.	.	.	.	.	.
.	.	32f\JJJ	.	.	.	.	.	.	.	.	.	.	.	.	.	.	.	.	.	.	.	.	.	.	.	.	.	.	.	.
2GG-X^/ 2G-X	.	32cc\LLL 32ee-	.	2G-X\	dłoń,	ver.	.	8ee-/)	8ee-X\	-gi	-to	.	.	.	8a-/	.	.	.	8cc\ 8ee-	-gi	-to	.	.	.	.	.	[2aa-\)	.	.	.
.	.	32a-\	.	.	.	.	.	.	.	.	.	.	.	.	.	.	.	.	.	.	.	.	.	.	.	.	.	.	.	.
.	.	32cc\ 32ee-	.	.	.	.	.	.	.	.	.	.	.	.	.	.	.	.	.	.	.	.	.	.	.	.	.	.	.	.
.	.	32a-\	.	.	.	.	.	.	.	.	.	.	.	.	.	.	.	.	.	.	.	.	.	.	.	.	.	.	.	.
.	.	32cc\ 32ee-	.	.	.	.	.	16r	8ryy	.	.	.	.	.	16r	.	.	.	16r	.	.	.	.	.	.	.	.	.	.	.
.	.	32a-\	.	.	.	.	.	.	.	.	.	.	.	.	.	.	.	.	.	.	.	.	.	.	.	.	.	.	.	.
.	.	32cc\ 32ee-	.	.	.	.	.	16ee-\	.	oł-	ci	twa	ci	.	16a-/	.	.	.	16cc\ 16ee-	twa	ci	.	.	.	.	.	.	.	.	.
.	.	32a-\	.	.	.	.	.	.	.	.	.	.	.	.	.	.	.	.	.	.	.	.	.	.	.	.	.	.	.	.
.	.	32cc\ 32ee-	.	.	.	.	.	8.ee-\	4ryy	-ta-	sve-	do-	sve-	.	8.a-/	.	.	.	8.cc\ 8.ee-	do-	sve-	.	.	.	.	.	.	.	.	.
.	.	32a-\	.	.	.	.	.	.	.	.	.	.	.	.	.	.	.	.	.	.	.	.	.	.	.	.	.	.	.	.
.	.	32cc\ 32ee-	.	.	.	.	.	.	.	.	.	.	.	.	.	.	.	.	.	.	.	.	.	.	.	.	.	.	.	.
.	.	32a-\	.	.	.	.	.	.	.	.	.	.	.	.	.	.	.	.	.	.	.	.	.	.	.	.	.	.	.	.
.	.	32cc\ 32ee-	.	.	.	.	.	.	.	.	.	.	.	.	.	.	.	.	.	.	.	.	.	.	.	.	.	.	.	.
.	.	32a-\	.	.	.	.	.	.	.	.	.	.	.	.	.	.	.	.	.	.	.	.	.	.	.	.	.	.	.	.
.	.	32cc\ 32ee-	.	.	.	.	.	16ee-\	.	-rze	-li il	-tknie	-li il	.	16a-/	.	.	.	16cc\ 16ee-	-tknie	-li il	.	.	.	.	.	.	.	.	.
.	.	32a-\JJJ	.	.	.	.	.	.	.	.	.	.	.	.	.	.	.	.	.	.	.	.	.	.	.	.	.	.	.	.
*	*	*	*	*	*	*	*	*v	*v	*	*	*	*	*	*	*	*	*	*	*	*	*	*	*	*	*	*	*	*	*
=36	=36	=36	=36	=36	=36	=36	=36	=36	=36	=36	=36	=36	=36	=36	=36	=36	=36	=36	=36	=36	=36	=36	=36	=36	=36	=36	=36	=36	=36
!	!	!	!	!	!	!	!	!	!	!	!	!	!	!	!	!	!	!	!	!	!	!	!	!	!	!LO:N:vis=2..	!	!	!
8.FF/L 8.F	.	32a-/LLL 32dd-	.	8.F\	A	E	.	8.dd-\	.	A	ver.	.	.	8.a-/	dłoń	ver.	.	2dd-\	dłoń,	ver.	.	1ryy	.	.	.	(4..aa-\]	.	.	.
.	.	32d-/	.	.	.	.	.	.	.	.	.	.	.	.	.	.	.	.	.	.	.	.	.	.	.	.	.	.	.
.	.	32a-/ 32dd-	.	.	.	.	.	.	.	.	.	.	.	.	.	.	.	.	.	.	.	.	.	.	.	.	.	.	.
.	.	32d-/	.	.	.	.	.	.	.	.	.	.	.	.	.	.	.	.	.	.	.	.	.	.	.	.	.	.	.
.	.	32a-/ 32dd-	.	.	.	.	.	.	.	.	.	.	.	.	.	.	.	.	.	.	.	.	.	.	.	.	.	.	.
.	.	32d-/	.	.	.	.	.	.	.	.	.	.	.	.	.	.	.	.	.	.	.	.	.	.	.	.	.	.	.
16EEny/K 16En	.	32a-/ 32dd-	.	16En\	od	ne ar-	.	16dd-\	.	od	Ne ar-	.	.	16a-/	Od	Ne ar-	.	.	.	.	.	.	.	.	.	.	.	.	.
.	.	32d-/JJJ	.	.	.	.	.	.	.	.	.	.	.	.	.	.	.	.	.	.	.	.	.	.	.	.	.	.	.
8.FF/ 8.F	.	32a-/LLL	.	8.F\	po-	-ri-	.	8.dd-\	.	po-	-ri-	.	.	8.a-/	po-	-ri-	.	.	.	.	.	.	.	.	.	.	.	.	.
.	.	32d-/	.	.	.	.	.	.	.	.	.	.	.	.	.	.	.	.	.	.	.	.	.	.	.	.	.	.	.
.	.	32a-/	.	.	.	.	.	.	.	.	.	.	.	.	.	.	.	.	.	.	.	.	.	.	.	.	.	.	.
.	.	32d-/	.	.	.	.	.	.	.	.	.	.	.	.	.	.	.	.	.	.	.	.	.	.	.	.	.	.	.
.	.	32a-/	.	.	.	.	.	.	.	.	.	.	.	.	.	.	.	.	.	.	.	.	.	.	.	.	.	.	.
.	.	32d-/	.	.	.	.	.	.	.	.	.	.	.	.	.	.	.	.	.	.	.	.	.	.	.	.	.	.	.
16AA-/Jk	.	32a-/	.	16A-\	-ni-	-da il	.	16dd-\	.	-ni-	-da il	.	.	16a-/	-ni-	-da il	.	.	.	.	.	.	.	.	.	32gg\LLL	.	.	.
.	.	32d-/JJJ	.	.	.	.	.	.	.	.	.	.	.	.	.	.	.	.	.	.	.	.	.	.	.	32ff\JJJ)	.	.	.
(4..BBB-^/ 4..BB-	.	32d-/LLL 32f	.	(4A-^\	-że-	vo-	.	4b-\	.	-że-	vo-	.	.	4d-/	-że-	vo-	.	8.f/	a	E	.	.	.	.	.	8.ff\	-mo	-te,	.
.	.	32A-/	.	.	.	.	.	.	.	.	.	.	.	.	.	.	.	.	.	.	.	.	.	.	.	.	.	.	.
.	.	32d-/ 32f	.	.	.	.	.	.	.	.	.	.	.	.	.	.	.	.	.	.	.	.	.	.	.	.	.	.	.
.	.	32A-/	.	.	.	.	.	.	.	.	.	.	.	.	.	.	.	.	.	.	.	.	.	.	.	.	.	.	.
.	.	32d-/ 32f	.	.	.	.	.	.	.	.	.	.	.	.	.	.	.	.	.	.	.	.	.	.	.	.	.	.	.
.	.	32A-/	.	.	.	.	.	.	.	.	.	.	.	.	.	.	.	.	.	.	.	.	.	.	.	.	.	.	.
.	.	32d-/ 32f	.	.	.	.	.	.	.	.	.	.	.	.	.	.	.	16f/	od-	ne ar-	.	.	.	.	.	32ee-\LLL	ty	su	.
.	.	32A-/JJJ	.	.	.	.	.	.	.	.	.	.	.	.	.	.	.	.	.	.	.	.	.	.	.	32dd-\JJJ	.	.	.
.	.	32A-/LLL 32d-	.	8.BB-/)	-nia	-stro	.	8f/	.	-nia	-stro	.	.	8d-/	-nia	-stro	.	8b-\	-po-	-ri-	.	.	.	.	.	8.dd-\	bo-	lui	.
.	.	32F/	.	.	.	.	.	.	.	.	.	.	.	.	.	.	.	.	.	.	.	.	.	.	.	.	.	.	.
.	.	32A-/ 32d-	.	.	.	.	.	.	.	.	.	.	.	.	.	.	.	.	.	.	.	.	.	.	.	.	.	.	.
.	.	32F/	.	.	.	.	.	.	.	.	.	.	.	.	.	.	.	.	.	.	.	.	.	.	.	.	.	.	.
.	.	32A-/ 32d-	.	.	.	.	.	8dd-\	.	twe	il	.	.	8f/	twe	il	.	8f/	-ni-	-da il	.	.	.	.	.	.	.	.	.
.	.	32F/	.	.	.	.	.	.	.	.	.	.	.	.	.	.	.	.	.	.	.	.	.	.	.	.	.	.	.
32CC/LLL	.	32A-/ 32d-	.	32C/LLL	twe	il	.	.	.	.	.	.	.	.	.	.	.	.	.	.	.	.	.	.	.	32cc\LLL	-ha-	non	.
32DD-/JJJ)	.	32F/JJJ	.	32D-/JJJ	.	.	.	.	.	.	.	.	.	.	.	.	.	.	.	.	.	.	.	.	.	32b-\JJJ	.	.	.
!!LO:LB:g=original	!	!	!	!	!	!	!	!	!	!	!	!	!	!	!	!	!	!	!	!	!	!	!	!	!	!	!	!	!
=37	=37	=37	=37	=37	=37	=37	=37	=37	=37	=37	=37	=37	=37	=37	=37	=37	=37	=37	=37	=37	=37	=37	=37	=37	=37	=37	=37	=37	=37
!	!	!	!	!	!	!	!	!	!	!	!	!	!	!	!	!	!	!	!	!	!	!LO:TX:b:t=(ai 4 Bramini)	!	!	!	!	!	!	!
!	!	!	!	!	!	!	!	!	!	!	!	!	!	!	!	!	!	!	!	!	!	!LO:TX:a:t=Akebar.	!	!	!	!	!	!	!
*	*	*tuplet	*	*	*	*	*	*	*	*	*	*	*	*	*	*	*	*	*	*	*	*	*	*	*	*	*	*	*
8.EE-\L 8.E-	.	12A-</L 12c/	.	4E-\	.	.	.	4cc\	świę-	vo-	.	.	.	4e-/	świę-	vo-	.	4e-/	-że-	vo-	.	4r	.	.	.	4a-/	-te-	piom-	.
.	.	12A-</ 12c 12e-	.	.	.	.	.	.	.	.	.	.	.	.	.	.	.	.	.	.	.	.	.	.	.	.	.	.	.
.	.	12c/J 12e- 12a-	.	.	.	.	.	.	.	.	.	.	.	.	.	.	.	.	.	.	.	.	.	.	.	.	.	.	.
16EE-\Jk 16E-	.	.	.	.	.	.	.	.	.	.	.	.	.	.	.	.	.	.	.	.	.	.	.	.	.	.	.	.	.
8.EE-\L 8.E-	.	8.e-/L 8.a- 8.cc	.	8E-\	.	.	.	8cc\	-te	-stro	.	.	.	8e-/	-te	-stro	.	8a-/	-nia	-stro	.	8.r	.	.	.	8.ff\	-ra	-bi	.
.	.	.	.	16r	.	.	.	16r	.	.	.	.	.	16r	.	.	.	16r	.	.	.	.	.	.	.	.	.	.	.
16EE-\Jk 16E-	.	16c/Jk 16e- 16a-	.	16E-\	.	.	.	16ee-\	oł-	di-	.	.	.	16a-/	oł-	di-	.	16cc\	oł-	di-	.	16A-\	Wy-	Leg-	.	16ee-\	przed	il	.
!	!	!	!	!	!	!	!LO:HP:a	!	!	!	!	!	!LO:HP:a	!	!	!	!LO:HP:a	!	!	!	!LO:HP:a	!	!	!	!	!	!	!	!
2EE-;/ 2E-	.	2B-;/ 2d- 2g	.	[4E-;\	.	.	>	[4dd-;\	-ta-	-vin	.	.	>	[4e-;/	-ta-	-vin	>	[4b-;\	-ta-	-vin	>	4e-;\	-rzecz-	-ge-	.	([4gg;\	zem-	lor	.
!	!	!	!	!	!	!	!	!	!	!	!	!	!	!	!	!	!	!	!	!	!	!	!	!	!	!	!	!	!LO:HP:a
.	.	.	.	8E-\]	.	.	.	8dd-\]	.	.	.	.	.	8e-/]	.	.	.	8b-\]	.	.	.	8E-\	-cie!	-te!	.	16gg\LL]	.	.	>
.	.	.	.	.	.	.	.	.	.	.	.	.	.	.	.	.	.	.	.	.	.	.	.	.	.	16ff\JJ	.	.	.
.	.	.	.	8E-;\	.	.	]	8b-;\	-rze	po-	.	.	]	8e-;/	-rze	po-	]	8g;/	-rze	po-	]	8r;	.	.	.	16ee-;\)	.	.	.
.	.	.	.	.	.	.	.	.	.	.	.	.	.	.	.	.	.	.	.	.	.	.	.	.	.	32dd-\LLL	-stą	fu-	.
.	.	.	.	.	.	.	.	.	.	.	.	.	.	.	.	.	.	.	.	.	.	.	.	.	.	32b-\JJJ	chroń!	.	]]
=38	=38	=38	=38	=38	=38	=38	=38	=38	=38	=38	=38	=38	=38	=38	=38	=38	=38	=38	=38	=38	=38	=38	=38	=38	=38	=38	=38	=38	=38
*^	*	*	*	*	*	*	*	*	*	*	*	*	*	*	*	*	*	*	*	*	*	*	*	*	*	*	*	*	*
2.G/	(2.E-\	.	8.r	f	8E-\	.	.	.	8ee-\	chroń.	-ter.	.	.	.	8e-/	chroń	-ter.	.	8e-/	chroń.	-ter.	.	1r	.	.	.	8g/	.	-ror!	.
.	.	.	.	.	8r	.	.	.	8r	.	.	.	.	.	8r	.	.	.	8r	.	.	.	.	.	.	.	8r	.	.	.
!	!	!	!LO:TX:a:t=(Tromby za Sceną)(Trombe, oltre ia scena)	!	!	!	!	!	!	!	!	!	!	!	!	!	!	!	!	!	!	!	!	!	!	!	!	!	!	!
.	.	.	16G/ 16g	.	.	.	.	.	.	.	.	.	.	.	.	.	.	.	.	.	.	.	.	.	.	.	.	.	.	.
.	.	.	2.G/ 2.g	.	4r	.	.	.	4r	.	.	.	.	.	4r	.	.	.	4r	.	.	.	.	.	.	.	4r	.	.	.
!	!	!	!	!	!	!	!	!	!	!	!	!	!	!	!	!	!	!	!	!	!	!	!	!	!	!	!LO:TX:b:t=w Czasie powyższego wielośpiewu czterej pierwsi braminowie od-\npinają klamry księgi przepowiedni- po czem Akebar zbliżywszy się\nz powagą i czcią, otwiera ją, niepatrząc w której miejscu).	!	!	!
!	!	!	!	!	!	!	!	!	!	!	!	!	!	!	!	!	!	!	!	!	!	!	!	!	!	!	!LO:TX:b:i:t=(durante il pezzo concertato, i quattro Bramini anziani sciolgono i fer-	!	!	!
.	.	.	.	.	4r	.	.	.	4r	.	.	.	.	.	4r	.	.	.	4r	.	.	.	.	.	.	.	2r	.	.	.
!	!	!	!	!	!	!	!	!LO:DY:a	!	!	!	!	!	!LO:DY:a	!	!	!	!LO:DY:a	!	!	!	!	!	!	!	!	!	!	!	!
4F#X/	4E-\)	.	.	.	4G\	.	.	p	4g/	Cze-	Per-	.	.	p	4g/	.	.	p	4g/	Cze-	Per-	p	.	.	.	.	.	.	.	.
=39	=39	=39	=39	=39	=39	=39	=39	=39	=39	=39	=39	=39	=39	=39	=39	=39	=39	=39	=39	=39	=39	=39	=39	=39	=39	=39	=39	=39	=39	=39
1Fn	(2.D-\	.	8.r	.	2G\	.	.	.	2g/	-ka-	-ples-	.	.	.	2g/	.	.	.	2g/	-ka-	-ples-	.	1r	.	.	.	1r	.	.	.
.	.	.	16G/ 16g	.	.	.	.	.	.	.	.	.	.	.	.	.	.	.	.	.	.	.	.	.	.	.	.	.	.	.
.	.	.	2.G/ 2.g	.	.	.	.	.	.	.	.	.	.	.	.	.	.	.	.	.	.	.	.	.	.	.	.	.	.	.
.	.	.	.	.	4G\	.	.	.	4g/	-my	-si a-	.	.	.	4g/	.	.	.	4g/	-my	-si a-	.	.	.	.	.	.	.	.	.
.	4D-X\)	.	.	.	4G\	.	.	.	4g/	ze	-scol-	.	.	.	4g/	.	.	.	4g/	ze	-scol-	.	.	.	.	.	.	.	.	.
=40	=40	=40	=40	=40	=40	=40	=40	=40	=40	=40	=40	=40	=40	=40	=40	=40	=40	=40	=40	=40	=40	=40	=40	=40	=40	=40	=40	=40	=40	=40
(2En/	1C	.	8.r	.	(1G	.	.	.	(1g	drże-	-tia-	.	.	.	(1g	.	.	.	(1g	drże-	-tia-	.	1r	.	.	.	1r	.	.	.
.	.	.	16G/ 16g	.	.	.	.	.	.	.	.	.	.	.	.	.	.	.	.	.	.	.	.	.	.	.	.	.	.	.
.	.	.	[4G/ [4g	.	.	.	.	.	.	.	.	.	.	.	.	.	.	.	.	.	.	.	.	.	.	.	.	.	.	.
2E-X/)	.	.	8.G/L] 8.g]	.	.	.	.	.	.	.	.	.	.	.	.	.	.	.	.	.	.	.	.	.	.	.	.	.	.	.
.	.	.	16G/Jk 16g	.	.	.	.	.	.	.	.	.	.	.	.	.	.	.	.	.	.	.	.	.	.	.	.	.	.	.
.	.	.	4G^/ 4g	.	.	.	.	.	.	.	.	.	.	.	.	.	.	.	.	.	.	.	.	.	.	.	.	.	.	.
*v	*v	*	*	*	*	*	*	*	*	*	*	*	*	*	*	*	*	*	*	*	*	*	*	*	*	*	*	*	*	*
=41	=41	=41	=41	=41	=41	=41	=41	=41	=41	=41	=41	=41	=41	=41	=41	=41	=41	=41	=41	=41	=41	=41	=41	=41	=41	=41	=41	=41	=41
!	!	!	!	!	!	!	!	!	!	!	!	!	!	!	!	!	!	!	!	!	!	!LO:TX:b:i:t=magli del libro delle profezie, dopo di che Akebar, in atto di venerazione\ne rispetto, si avvicina e, senza scegliere il foglio, apre il libro a caso)	!	!	!	!	!	!	!
1CC;< 1EE- 1AA- 1C 1E- 1A-	.	1c; 1e-	sf	4C/)	.	.	.	4c/)	-niem.	-mo.	.	.	.	4c/)	.	.	.	4c/)	-niem.	-mo.	.	1r;	.	.	.	1r;	.	.	.
.	.	.	.	4r	.	.	.	4r	.	.	.	.	.	4r	.	.	.	4r	.	.	.	.	.	.	.	.	.	.	.
.	.	.	.	2r;	.	.	.	2r;	.	.	.	.	.	2r;	.	.	.	2r;	.	.	.	.	.	.	.	.	.	.	.
==	==	==	==	==	==	==	==	==	==	==	==	==	==	==	==	==	==	==	==	==	==	==	==	==	==	==	==	==	==
*-	*-	*-	*-	*-	*-	*-	*-	*-	*-	*-	*-	*-	*-	*-	*-	*-	*-	*-	*-	*-	*-	*-	*-	*-	*-	*-	*-	*-	*-
!!!system-decoration: s1,s2[(s3,s4)][(s5,s6)]{(s7,s8)}
!!!RDF**kern: > = above
!!!RDF**kern: < = below
!!!ENC: Andrzej Gręziak
!!!END: 2022-08-29
!!!ENC: Jan Barakat
!!!END: 2022-10-10
!!!YEC: Copyright 2022 Narodowy Instytut Fryderyka Chopina (https://polishscores.org)
!!!YEM: License CC-BY-4.0 (https://creativecommons.org/licenses/by/4.0)
